!!!!SEGMENT: pl-wn--mus-iii-66-368_zelenski-wladyslaw--trauerklange-op-36.krn
!!!cenid: 18xx:3718
!!!COM: Żeleński, Władysław
!!!COM-rismID: pe41024455
!!!CDT: 1837/07/06-1921/01/23
!!!CNT: Polish
!!!OTL: Trauerklänge op. 36
!!!PDT:
!!!AGN:
!!!SMS-siglum: PL-Wn
!!!SMS-shelfmark: Mus.III.66.368
!!!SMS-shelfwork: W
!!!SMS-variant:
!!!SMS-altvar:
!!!NIFC-rismSourceID:
!!!NIFC-rismChildID:
!!!NIFC-islandoraID: none
!!!URL-pdf-islandora:
!!!URL-scan: https://polona.pl/item/trauerklange-elegisches-andante-fur-orchester-op-36,Njk4OTY3NzI/0 @EN{Scan on Polona} @PL{Skany w portalu Polona}
!!!IIIF: https://polona.pl/iiif/item/Njk4OTY3NzI/manifest.json
!!!ONB-nifc:
!!!AIN: 2 piano
!!!key: f#
**kern	**kern	**fing	**dynam	**kern	**kern	**dynam
*part2	*part2	*part2	*part2	*part1	*part1	*part1
*staff4	*staff3	*	*	*staff2	*staff1	*
*>[A,B,B,C,C,D]	*>[A,B,B,C,C,D]	*>[A,B,B,C,C,D]	*>[A,B,B,C,C,D]	*>[A,B,B,C,C,D]	*>[A,B,B,C,C,D]	*>[A,B,B,C,C,D]
*>A	*>A	*>A	*>A	*>A	*>A	*>A
*I"SECONDO.	*I"SECONDO.	*	*	*I"PRIMO.	*I"PRIMO.	*
*Ipiano	*Ipiano	*	*	*Ipiano	*Ipiano	*
*ICklav	*ICklav	*	*	*ICklav	*ICklav	*
*clefF4	*clefF4	*	*	*clefG2	*clefG2	*
*k[f#c#g#]	*k[f#c#g#]	*	*	*k[f#c#g#]	*k[f#c#g#]	*
*f#:	*f#:	*	*	*f#:	*f#:	*
*M4/4	*M4/4	*	*	*M4/4	*M4/4	*
*met(c)	*met(c)	*	*	*met(c)	*met(c)	*
*xywh-#2:372,198,2708,1015	*xywh-#2:372,198,2708,1015	*	*	*xywh-#3:428,380,2548,874	*xywh-#3:428,380,2548,874	*
!	!LO:TX:a:B:t=Andante sostenuto.	!	!	!	!LO:TX:a:B:t=Andante sostenuto.	!
4r	(4C#/	.	p	4r	4r	.
=1	=1	=1	=1	=1	=1	=1
!	!	!	!	!	!LO:TX:b:t=3	!
1r	([2F#\)	.	.	0r	0r	.
*	*Xtuplet	*	*	*	*	*
.	12F#\L]	.	.	.	.	.
.	12G#\	.	.	.	.	.
.	12A\J	.	.	.	.	.
.	8.G#\L	.	.	.	.	.
.	16F#\Jk)	.	.	.	.	.
=2	=2	=2	=2	=2	=2	=2
1r	(2F#\	.	.	.	.	.
.	8E#X\)	.	.	.	.	.
.	8r	.	.	.	.	.
.	(4C#/	.	.	.	.	.
=3	=3	=3	=3	=3	=3	=3
1r	([2F#\)	.	<	1r	1r	.
.	12F#\L]	.	.	.	.	.
.	12G#\	.	.	.	.	.
.	12A\J	.	.	.	.	.
.	8.G#\L	.	.	.	.	.
.	16F#\Jk)	.	[[	.	.	.
=4	=4	=4	=4	=4	=4	=4
1r	(2c#\	.	>	2r	1r	.
.	8B#X\)	.	.	4r	.	.
.	8r	.	]	.	.	.
!	!	!	!	!	!	!LO:DY:a=2
!	!	!	!	!	!	!LO:HP:a=2
.	8.F#\L	.	p <	(8.f#/L	.	p <
.	16Bn\Jk	.	[[	16b/Jk)	.	[
=5	=5	=5	=5	=5	=5	=5
1r	(4.B\	.	.	(4.b\	1r	.
.	8Gn\	.	.	8gn/	.	.
.	8E\L)	.	.	8e/L)	.	.
!	!	!	!	!	!	!LO:HP:a=2
.	(8F#\	.	<	(8f#/	.	<
.	8.A\	.	.	8.a/	.	.
.	16G\Jk	.	[[	16g/Jk	.	[[
=6	=6	=6	=6	=6	=6	=6
!	!	!	!	!	!	!LO:HP:a=2
1r	4.F#\)	.	<	4.f#/)	1r	<
.	[8E\	.	.	[8e/	.	.
.	8E/L]	.	.	8e/L]	.	.
.	(8D/	.	.	(8d/	.	.
.	8C#/	.	.	8c#/	.	.
.	8BB/J	.	.	8B/J	.	.
!LO:LB:g=original	!LO:LB:g=original	!	!	!	!	!
=7	=7	=7	=7	=7	=7	=7
*xywh-#2:320,1236,2539,596	*xywh-#2:320,1236,2539,596	*	*	*	*	*
2r	4AA/	.	.	4A/	1r	.
.	[4GG#X/	.	.	[4G#X/	.	.
!	!	!	!LO:HP:t=dimin.	!	!	!
8r	8GG#/L])	.	>	8G#/L])	.	.
!	!	!	!	!	!	!LO:HP:a=2:t=dimin.
(8GGG#/L	(8GG#/	.	.	(8G#/	.	>
8BBB/	8BB/	.	.	8B/	.	.
8DD/J)	8D/J)	.	.	8d/J)	.	.
=8	=8	=8	=8	=8	=8	=8
!	!	!	!	!	!	!LO:HP:a=2
(2DD/	(2D\	.	>	(2d/	2r	>
8CC#/)	8C#/)	.	]	8c#/)	4r	]
8r	8r	.	.	8r	.	.
4r	4r	.	.	4r	4c#/	pp
!	!	!	!	!LO:LB:g=original	!LO:LB:g=original	!
=9	=9	=9	=9	=9	=9	=9
*	*	*	*	*xywh-#3:321,1187,2588,613	*xywh-#3:321,1187,2588,613	*
1r	4r	.	.	1r	([2f#/	.
.	(4d^\	.	pp	.	.	.
*	*	*	*	*	*Xtuplet	*
.	4c#\	.	.	.	12f#/L]	<
.	.	.	.	.	12g#/	.
.	.	.	.	.	12a/J	.
.	4B#X\)	.	.	.	8.g#/L	.
.	.	.	.	.	16f#/Jk)	[
=10	=10	=10	=10	=10	=10	=10
4r	4r	.	.	4r	(2f#/	.
(4D\	[4Bn\	.	>	[4G#^>/	.	.
8C#/)	8B\]	.	]	8G#/]	8e#X/)	.
8r	8r	.	.	8r	8r	.
4r	4r	.	.	4r	(4c#/	.
=11	=11	=11	=11	=11	=11	=11
1r	4r	.	.	1r	([2f#/)	.
.	(4e^\	.	.	.	.	.
.	4d#X\	.	.	.	12f#/L]	<
.	.	.	.	.	12g#/	.
.	.	.	.	.	12a/J	.
.	4dn\)	.	.	.	8.g#/L	.
.	.	.	.	.	16f#/Jk)	[
=12	=12	=12	=12	=12	=12	=12
*	*	*	*	*	*	*^
4r	4r	.	.	4r	(2cc#\	>	.
(4A\	[4d#X\	.	>	[4f#^>/	.	.	.
8G#\)	8d#\]	.	]	8f#/]	8b#X\)	]	.
8r	8r	.	.	8r	8r	.	.
!	!	!	!	!	!	!	!LO:HP:b=2
(4G#\	(4B#X\	.	<[	(4d#X/	(8.f#/L	<	<
.	.	.	.	.	16bn/Jk)	[[	[
=13	=13	=13	=13	=13	=13	=13	=13
!	!	!	!	!	!	!	!LO:DY:b=2
[2Gn\)	[2Bn\)	.	sfz	[2e/)	(4.b\	sfz	sfz
.	.	.	.	.	8gn/	.	.
8G\]	8B\]	.	.	8e/]	8e/L)	.	.
8r	8r	.	.	8r	(8f#/	<	.
(4C#/	(4e 4B-X\	.	<	4r	8.a/	.	.
.	.	.	.	.	16g/Jk)	.	.
*	*	*	*	*	*	*v	*v
=14	=14	=14	=14	=14	=14	=14
*	*^	*	*	*	*	*
*	*	*xywh-#2:320,1236,2539,596	*	*	*	*	*
4D\	4.d/	[2A\	.	.	2r	(>4.f#/	.
8AA/L	.	.	.	.	.	.	.
8GGn/J	8c#/	.	.	.	.	[8e/	.
8FF#/)	8A/)	8A\]	.	[	8r	8a 8e/])	.
8r	8r	8ryy	.	.	(8d/L	8r	.
4r	4r	4ryy	.	.	8A/	4r	.
.	.	.	.	.	8B/J)	.	[
!!LO:LB:g=original
=15	=15	=15	=15	=15	=15	=15	=15
*xywh-#2:401,1854,2539,552	*xywh-#2:401,1854,2539,552	*xywh-#2:401,1854,2539,552	*	*	*xywh-#3:361,1748,2568,620	*xywh-#3:361,1748,2568,620	*
4r	4r	4ryy	.	.	8c#/	1r	.
!	!	!	!	!	!	!	!LO:DY:a=2
.	.	.	.	.	8r	.	pp
2GG#X/	(4E#X/	2C#\	.	pp <	(2G#/	.	.
.	4D#X/	.	.	.	.	.	.
.	.	.	.	.	8qB/	.	.
!	!	!	!	!	!	!	!LO:HP:a=2
([4GG# 4GGG#/	4F#/	4BB#X\	.	[[	8.A/L	.	<
.	.	.	.	.	16G#/Jk)	.	[[
=16	=16	=16	=16	=16	=16	=16	=16
!	!	!	!	!	!	!	!LO:HP:a=2
8GG#] 8CC#/)	[2E#X/)	[2C#\	.	>	[2G#/	1r	>
8r	.	.	.	.	.	.	.
(8.GG#/L	.	.	.	.	.	.	.
16EE#X/Jk	.	.	.	.	.	.	.
8CC#/)	8E#/]	8C#\]	.	]	8G#/]	.	]
8r	8r	8ryy	.	.	8r	.	.
*	*clefG2	*	*	*	*	*	*
!	!	!	!	!	!	!	!LO:DY:a=2
4r	4c#/	4ryy	.	p	4cc#\	.	p
=17	=17	=17	=17	=17	=17	=17	=17
!LO:TX:a:i:t=legg.	!LO:TX:a:i:t=cantabile	!	!	!	!LO:TX:a:i:t=cantabile	!	!
8.r	2c#/	8.r	.	.	(2cc#\	1r	.
*Xtuplet	*	*	*	*	*	*	*
48ELLL 48EE/	.	48G#\LLL	.	.	.	.	.
48E 48EE/	.	48G#\	.	.	.	.	.
48EJJJ 48EE/	.	48G#\JJJ	.	.	.	.	.
8.EL 8.EE/	.	8.G#\L	.	.	.	.	.
48ELL 48EE/	.	48G#\LL	.	.	.	.	.
48E 48EE/	.	48G#\	.	.	.	.	.
48EJJJ 48EE/	.	48G#\JJJ	.	.	.	.	.
.	8qd#X/	.	.	.	8qdd#X/	.	.
*	*	*	*	*	*Xtuplet	*	*
8D#X 8DD#X/	12c#/L	8F##X\	.	.	12cc#\L)	.	.
.	(12B#X/	.	.	.	(12b#X\	.	.
8r	.	8r	.	.	.	.	.
.	12c#/J	.	.	.	12cc#\J	.	.
4r	12d#y/L	4r	.	.	12dd#\L	.	.
.	12e/	.	.	.	12ee\	.	.
.	12F##/J)	.	.	.	12f##X\J)	.	.
=18	=18	=18	=18	=18	=18	=18	=18
*	*	*^	*	*	*	*	*
4r	4r	1G#	4ryy	.	.	(2.g#/	1r	.
(4Dn 4DDn/	(2f#X/	.	2.Bn\	.	>	.	.	.
2C# 2CC#/)	.	.	.	.	.	.	.	.
*	*	*	*	*	*	*tuplet	*	*
!	!	!	!	!	!	!LO:TUP:b	!	!
.	4e#X/)	.	.	.	]	12bn/L	.	.
.	.	.	.	.	.	12a/	.	.
.	.	.	.	.	.	12g#/J)	.	.
*	*v	*v	*v	*	*	*	*	*
=19	=19	=19	=19	=19	=19	=19
!	!	!	!	!	!	!LO:HP:b=2
(2Dn 2DDn/	4r	.	.	(2f#/	4r	<
*	*clefF4	*	*	*	*	*
!	!	!	!	!	!LO:TX:a:i:t=dolce	!
.	(4A 4F#\	.	<	.	(2ff# 2dd\	.
2GGn/	(2B (2Gn\)	.	[[	2b\	.	.
.	.	.	.	.	8.ee\L	.
.	.	.	.	.	[<16dd\Jk)	[
=20	=20	=20	=20	=20	=20	=20
!	!	!	!	!	!	!LO:HP:b=2
[2DD/)	[2A [2F#\))	.	>	8.a/L)	[2ff# 2dd\_	>
.	.	.	.	(16f#/K	.	.
.	.	.	.	8.d/	.	.
.	.	.	.	16e/Jk	.	.
8DD/]	8A] 8F#\]	.	]	8f#/)	8ff#] 8dd\]	]
8r	8r	.	.	8r	8r	.
*	*clefG2	*	*	*	*	*
4r	4f#/	.	.	4ff#\	4r	.
!!LO:LB:g=original
=21	=21	=21	=21	=21	=21	=21
*xywh-#2:291,2355,2664,625	*xywh-#2:291,2355,2664,625	*	*	*xywh-#3:294,2315,2622,613	*xywh-#3:294,2315,2622,613	*xywh-#3:294,2315,2622,613
*	*	*xywh-#2:291,2355,2664,625	*	*	*	*
*	*^	*	*	*	*	*
!	!LO:TX:a:i:t=espress.	!	!	!	!LO:TX:a:i:t=espress.	!	!
8.r	[2f#/	8.r	.	.	(2ff#\	1r	.
48ALLL 48AA\	.	48c#\LLL	.	.	.	.	.
48A 48AA\	.	48c#\	.	.	.	.	.
48AJJJ 48AA\	.	48c#\JJJ	.	.	.	.	.
8.AL 8.AA\	.	8.c#\L	.	.	.	.	.
48ALL 48AA\	.	48c#\LL	.	.	.	.	.
48A 48AA\	.	48c#\	.	.	.	.	.
48AJJJ 48AA\	.	48c#\JJJ	.	.	.	.	.
.	8qg#/	.	.	.	8qgg#/	.	.
*	*	*	*	*	*Xtuplet	*	*
8G# 8GG#/	12f#/L]	8B#X\	.	.	12ff#\L)	.	.
.	(12e#X/	.	.	.	(12ee#X\	.	.
8r	.	8r	.	.	.	.	.
.	12f#/J	.	.	.	12ff#\J	.	.
4r	12g#/L	4r	.	.	12gg#\L	.	.
.	12a/	.	.	.	12aa\	.	.
.	12B#/J)	.	.	.	12b#X\J)	.	.
=22	=22	=22	=22	=22	=22	=22	=22
*	*	*^	*	*	*	*	*
*	*	*	*xywh-#2:291,2355,2664,625	*	*	*	*	*
4r	4r	1c#	4ryy	.	>	(2.cc#\	1r	.
(4Gn 4GGn/	(2bn/	.	2.en\	.	.	.	.	.
2F# 2FF#/)	.	.	.	.	.	.	.	.
*	*	*	*	*	*	*tuplet	*	*
!	!	!	!	!	!	!LO:TUP:a	!	!
.	4a#X/)	.	.	.	]]	12een\L	.	.
.	.	.	.	.	.	12ddn\	.	.
.	.	.	.	.	.	12cc#\J)	.	.
*	*	*v	*v	*	*	*	*	*
=23	=23	=23	=23	=23	=23	=23	=23
*	*	*	*	*	*	*^	*
!	!	!	!	!	!	!	!	!LO:HP:a=2
(2Gn 2GGn/	4r	4ryy	.	.	(2b\	4r	4ryy	<
.	(4d/	2B\	.	<	.	(4ddd/	(2bb\	.
2Cn/	2e 2cn/	.	.	.	2ee\	2eee/)	.	.
.	.	8.A\L	.	.	.	.	8.aa\L	.
.	.	16Gn\Jk	.	[[	.	.	16ggn\Jk)	[
*	*v	*v	*	*	*	*v	*v	*
=24	=24	=24	=24	=24	=24	=24
[2GGn/)	[2d [2B/)	.	>	8.dd\L)	[2ddd [2bb\	.
!	!	!	!	!	!	!LO:HP:a=2
.	.	.	.	(16b\K	.	>
.	.	.	.	8.gn\	.	.
.	.	.	.	16a\Jk	.	.
8GG/]	8d] 8B/]	.	]	8b'\)	8ddd] 8bb\]	]
8r	8r	.	.	8r	8r	.
4r	4r	.	.	4B'/	4b'\	f
=25	=25	=25	=25	=25	=25	=25
*	*^	*	*	*	*	*
4r	4r	4ryy	.	.	([2f#/	([2ff#\	<
*	*clefF4	*	*	*	*	*	*
(4BB#X 4BBB#X/	(4d [4A/	12F#\L	.	f	.	.	.
!	!LO:TX:b:i:t=marcato	!	!	!	!	!	!
.	.	12F#\	.	.	.	.	.
.	.	12F#\J	.	.	.	.	.
*	*	*	*	*	*	*tuplet	*
!	!	!	!	!	!LO:TUP:b	!LO:TUP:a	!
4C# 4CC#/)	8c# 8A/])	[2F#\	.	.	12f#/L]	12ff#\L]	.
.	.	.	.	.	12g#X/	12gg#X\	.
.	8rc	.	.	.	.	.	.
.	.	.	.	.	12a/J	12aa\J	.
4D 4DD/	(4B#X/	.	.	.	8.g#/L	8.gg#\L	.
.	.	.	.	.	16f#/Jk)	16ff#\Jk)	[
=26	=26	=26	=26	=26	=26	=26	=26
*	*	*	*	*	*^	*	*^
*	*	*	*	*	*	*xywh-#3:294,2315,2622,613	*	*	*
4r	4.Bn/)	8F#\]	.	.	4r	(2f#\	(2ff#\	>	.
.	.	8ryy	.	.	.	.	.	.	.
!	!	!	!	!	!	!	!	!	!LO:HP:a=2
(4GG#X 4GGG#X/	.	4ryy	.	.	(8.d/L	.	.	.	<
.	8A/	.	.	.	.	.	.	.	.
.	.	.	.	.	16b/Jk)	.	.	.	.
8C# 8CC#/)	4G#'\	2ryy	.	.	([4b/	8e#X\)	8ee#X\)	]	[
8r	.	.	.	.	.	8r	8r	.	.
4r	4c#'\	.	.	.	12b/L]	4r	4cc#\	.	.
.	.	.	.	.	12a/	.	.	.	.
.	.	.	.	.	12g#/J)	.	.	.	.
*	*	*	*	*	*v	*v	*	*v	*v
!!LO:LB:g=original
=27	=27	=27	=27	=27	=27	=27	=27
*xywh-#2:357,2929,2598,721	*xywh-#2:357,2929,2598,721	*xywh-#2:357,2929,2598,721	*	*xywh-#3:374,2889,2628,760	*xywh-#3:374,2889,2628,760	*xywh-#3:374,2889,2628,760	*
*	*	*	*xywh-#2:357,2929,2598,721	*	*	*	*
*	*	*^	*	*	*	*	*
4r	(2en/	4ryy	4r	.	.	([2f#^/	([2ff#\	<
*	*	*	*tuplet	*	*	*	*	*
4AA#X 4AAA#X/	.	4c# 4E\	12F#/L	.	sfz	.	.	.
.	.	.	12F#/	.	.	.	.	.
.	.	.	12F#/J	.	.	.	.	.
*	*	*	*	*	*	*Xtuplet	*Xtuplet	*
4BB 4BBB/	8d#X 8B 8F#/)	8D#X\	2ryy	.	.	12f#/L]	12ff#\L]	.
.	.	.	.	.	.	12g#/	12gg#\	.
.	8r	8ryy	.	.	.	.	.	.
.	.	.	.	.	.	12a/J	12aa\J	.
4BB#X 4BBB#X/	[4F# [4Dn\	4ryy	.	.	.	8.g#/L	8.gg#\L	[
.	.	.	.	.	.	16f#/Jk)	16ff#\Jk)	.
*	*v	*v	*v	*	*	*	*	*
=28	=28	=28	=28	=28	=28	=28
*	*	*	*^	*^	*^	*^
*	*	*	*	*	*	*xywh-#3:374,2889,2628,760	*	*	*	*
4r	4F#_ 4D\_	.	.	.	4r	2f#\	(2ff#\	2.ryy	>	.
*	*Xtuplet	*	*	*	*	*	*	*	*	*
!	!	!	!	!LO:HP:b=2	!	!	!	!	!	!LO:HP:a=2
[4C# [4CC#/	12F#]L 12D\]	.	>	>	(8.d/L	.	.	.	.	<
.	(12Bn'\	.	.	.	.	.	.	.	.	.
.	12A'\J	.	.	.	.	.	.	.	.	.
.	.	.	.	.	16b/Jk)	.	.	.	.	.
8C#] 8CC#/]	8G#'\)	.	]	]	8b/	8e#X\	8ee#X\)	.	]	[
8r	8r	.	.	.	8r	8ryy	8r	.	.	.
!	!	!	!	!	!	!	!	!LO:ACC:color=grey	!	!
*	*	*	*	*	*	*	*	*xywh-#3:374,2889,2628,760	*	*
4r	(4e#X 4c#\	.	<[	.	(4b (4g#/	4ryy	(8.bb/L	(4ee#X\	<	.
.	.	.	.	.	.	.	16eeen/Jk)	.	[[	.
*	*	*	*v	*v	*	*	*	*	*	*
*	*	*	*	*v	*v	*	*	*v	*v
=29	=29	=29	=29	=29	=29	=29	=29
2r	[2en [2cn\)	.	sfz	[2ccn [2a\))	(4.eee/	[2een\)	sfz
.	.	.	.	.	8cccn/	.	.
4r	8e] 8c\]	.	.	8cc] 8a\]	8aa/L)	8ee\]	.
.	8r	.	.	8r	(>8b/	8ryy	.
!	!	!	!	!	!	!	!LO:DY:b=2
(4F#\	(4e-X\	.	.	(4a/	8.dd^>/	4ryy	sfz
.	.	.	.	.	16ccn/Jk)	.	.
*	*	*	*	*	*v	*v	*
=30	=30	=30	=30	=30	=30	=30
4Gn\	[2d\	.	>	(4gn/)	(4.b\	>
8D/L	.	.	.	4f#/	.	.
8Cn/J	.	.	.	.	[8a/	.
8BB/)	8d\])	.	]	8b/L)	8dd 8a\])	]
!	!	!	!	!	!	!LO:DY:b=2
8r	8r	.	.	(8g/	8r	p
4r	4r	.	.	8d/	4r	.
.	.	.	.	8e/J	.	.
=31	=31	=31	=31	=31	=31	=31
*	*^	*	*	*	*	*
4r	4r	4ryy	.	.	8f#/)	1r	.
.	.	.	.	.	8r	.	.
!	!	!	!	!	!	!	!LO:DY:a=2
([2.C# 2.CC#/	(4A/	2F#\	.	pp <	(2c#/	.	pp
!	!	!	!	!	!	!	!LO:HP:a=2
.	4G#X/	.	.	.	.	.	<
.	.	.	.	.	8qe/	.	.
.	4B/	4E#X\	.	[[	8.d/L	.	.
.	.	.	.	.	16c#/Jk)	.	[
=32	=32	=32	=32	=32	=32	=32	=32
*ped	*	*	*	*	*	*	*
!	!	!	!	!	!	!	!LO:HP:a=2
8C#] 8FF#/)	[2A [2F#/	4r	.	.	2.c#/	2r	>
8r	.	.	.	.	.	.	.
(8.CC#/L	.	(8.C#\L	.	>	.	.	.
16AAA/Jk	.	16AA\Jk	.	.	.	.	.
8FFF#/)	8A] 8F#/])	8FF#\)	.	]	.	4r	]
*Xped	*	*	*	*	*	*	*
8r	8r	8ryy	.	.	.	.	.
*	*v	*v	*	*	*	*	*
!!LO:PB:g=original
=!|:	=!|:	=!|:	=!|:	=!|:	=!|:	=!|:
*xywh-#4:378,301,2600,648	*xywh-#4:378,301,2600,648	*	*	*xywh-#5:281,200,2674,700	*xywh-#5:281,200,2674,700	*
*>B	*>B	*>B	*>B	*>B	*>B	*>B
!	!LO:TX:a:B:t=Un poco più mosso.	!	!	!	!LO:TX:a:B:t=Un poco più mosso.	!
4r	4r	.	.	4r	([4ff#\	p
*	*clefG2	*	*	*	*	*
=33	=33	=33	=33	=33	=33	=33
!	!	!	!	!	!LO:TX:b:i:t=dolce	!
4GGn 4GGGn/	12r	.	p	1r	4ff#\]	.
!	!LO:TX:b:i:t=leggiero	!	!	!	!	!
.	12f#L 12d 12B/	.	.	.	.	.
.	12f#J 12d 12B/	.	.	.	.	.
4r	12f#L 12d 12B/	.	.	.	[>4gn/)	.
.	12f# 12d 12B/	.	.	.	.	.
.	12f#J 12d 12B/	.	.	.	.	.
*	*tremolo	*	*	*	*	*
!	!LO:N:TREM:vis=2.	!	!	!	!	!
4C# 4CC#/	12eL 12c# 12Gn/	.	.	.	8g\L]	.
.	12e 12c# 12G/	.	.	.	.	.
.	.	.	.	.	(8cc#\	.
.	12e 12c# 12G/	.	.	.	.	.
4r	12e 12c# 12G/	.	.	.	8dd\	.
.	12e 12c# 12G/	.	.	.	.	.
.	.	.	.	.	8ee\J)	.
.	12eJ 12c# 12G/	.	.	.	.	.
=34	=34	=34	=34	=34	=34	=34
!	!LO:N:TREM:vis=2.	!	!	!	!	!
4FF# 4FFF#/	12eL 12c# 12A/	.	.	2r	(4ee\	.
.	12e 12c# 12A/	.	.	.	.	.
.	12e 12c# 12A/	.	.	.	.	.
4r	12e 12c# 12A/	.	.	.	2a/)	.
.	12e 12c# 12A/	.	.	.	.	.
.	12eJ 12c# 12A/	.	.	.	.	.
!	!LO:N:TREM:vis=2.	!	!LO:HP:a=2	!	!	!
(4F# 4FF#/	12dL 12A/	.	<	4r	.	.
.	12d 12A/	.	.	.	.	.
.	12d 12A/	.	.	.	.	.
4Fn 4FFn/	12d 12A/	.	.	[4aa^\	4r	.
.	12d 12A/	.	.	.	.	.
.	12dJ 12A/	.	.	.	.	.
=35	=35	=35	=35	=35	=35	=35
*	*	*	*	*	*	*^
!	!LO:N:TREM:vis=2.	!	!LO:HP:t=poco cresc.	!	!	!	!
2E 2EE/)	12dL 12B/	.	[ <	8aa\L]	2r	.	.
.	12d 12B/	.	.	.	.	.	.
.	.	.	.	(8gg#X\	.	.	.
.	12d 12B/	.	.	.	.	.	.
!	!	!	!	!	!	!LO:HP:a=2	!
.	12d 12B/	.	.	8b\	.	<	.
.	12d 12B/	.	.	.	.	.	.
.	.	.	.	8cc#\J	.	.	.
.	12dJ 12B/	.	.	.	.	.	.
*	*Xtremolo	*	*	*	*	*	*
4r	12dL 12B/	.	.	8dd\L	4ryy	.	.
.	12e 12d 12B/	.	.	.	.	.	.
.	.	.	.	8b\	.	.	.
.	12eJ 12d 12B/	.	.	.	.	.	.
*	*tremolo	*	*	*	*	*	*
!	!LO:N:TREM:vis=4.	!	!	!	!	!	!LO:HP:a
4E 4EE/	12eL 12d 12B/	.	.	8a\	(4ee\	.	<
.	12e 12d 12B/	.	.	.	.	.	.
.	.	.	.	8g#X\J	.	[	.
.	12eJ 12d 12B/	.	.	.	.	.	.
*	*Xtremolo	*	*	*	*	*	*
*	*	*	*	*	*	*v	*v
=36	=36	=36	=36	=36	=36	=36
4AA 4AAA/	12eL 12c# 12A/	.	.	8b\)	([2ggn\)	[
.	12a 12A/	.	.	.	.	.
.	.	.	.	8r	.	.
.	12aJ 12A/	.	.	.	.	.
*	*tremolo	*	*	*	*	*
!	!LO:N:TREM:vis=4.	!	!	!	!	!
4r	12aL 12A/	.	.	4r	.	.
.	12a 12A/	.	.	.	.	.
.	12aJ 12A/	.	.	.	.	.
!	!LO:N:TREM:vis=4.	!	!	!	!	!
4r	12aL 12A/	.	.	4r	8gg\L]	.
.	12a 12A/	.	.	.	.	.
.	.	.	.	.	8ff#\)	<
.	12aJ 12A/	.	.	.	.	.
!	!LO:N:TREM:vis=4.	!	!	!	!	!
4D 4DD/	12aL 12f# 12A/	.	mf	(8ee\L	(8.ff#\	.
.	12a 12f# 12A/	.	.	.	.	.
.	.	.	.	8dd\J	.	.
.	12aJ 12f# 12A/	.	.	.	.	.
.	.	.	.	.	16fff#\Jk)	[[
=37	=37	=37	=37	=37	=37	=37
!	!LO:N:TREM:vis=2.	!	!	!	!LO:TX:b:i:t=espress. molto	!
4BB 4BBB/	12gnL 12f# 12d/	.	p	2ff#\	(4fff#\	.
.	12g 12f# 12d/	.	.	.	.	.
.	12g 12f# 12d/	.	.	.	.	.
4r	12g 12f# 12d/	.	.	.	[4ggn\)	.
.	12g 12f# 12d/	.	.	.	.	.
.	12g 12f# 12d/	.	.	.	.	.
(4C# 4CC#/	12g 12f# 12d/	.	.	[2ee\)	8gg\L]	.
.	12g 12f# 12d/	.	.	.	.	.
.	.	.	.	.	(8ccc#\	.
.	12g 12f# 12d/	.	.	.	.	.
4BB 4BBB/	12g 12f# 12d/	.	.	.	8ddd\	.
.	12g 12f# 12d/	.	.	.	.	.
.	.	.	.	.	8eee\J)	.
.	12gJ 12f# 12d/	.	.	.	.	.
!!LO:LB:g=original
=38	=38	=38	=38	=38	=38	=38
*xywh-#4:385,969,2546,581	*xywh-#4:385,969,2546,581	*	*	*xywh-#5:335,861,2614,653	*xywh-#5:335,861,2614,653	*
!	!LO:N:TREM:vis=2.	!	!	!	!	!
4AA#X 4AAA#X/)	12f#L 12e 12c#/	.	.	(2ee\]	(4eee\	.
.	12f# 12e 12c#/	.	.	.	.	.
.	12f# 12e 12c#/	.	.	.	.	.
4r	12f# 12e 12c#/	.	.	.	[4ff#\)	.
.	12f# 12e 12c#/	.	.	.	.	.
.	12f#J 12e 12c#/	.	.	.	.	.
!	!LO:N:TREM:vis=2.	!	!	!	!	!
(4BB 4BBB/	12f#L 12d 12B/	.	.	8dd\)	8ff#\L]	.
.	12f# 12d 12B/	.	.	.	.	.
.	.	.	.	8r	(8ff#\	<
.	12f# 12d 12B/	.	.	.	.	.
4GG#X 4GGG#X/	12f# 12d 12B/	.	<	(8dd\L	8ddd\	.
.	12f# 12d 12B/	.	.	.	.	.
.	.	.	.	8b\J	8bb\J)	.
.	12f#J 12d 12B/	.	.	.	.	.
=39	=39	=39	=39	=39	=39	=39
*	*	*	*	*^	*^	*
*	*	*	*	*	*	*xywh-#5:335,861,2614,653	*	*
!	!LO:N:TREM:vis=4.	!	!	!	!	!	!	!
4C# 4CC#/)	12e#XL 12c# 12B/	.	.	8a/L	2ryy	(8aa\L	2ryy	.
.	12e# 12c# 12B/	.	.	.	.	.	.	.
.	.	.	.	8g#X/)	.	8gg#X\)	.	.
.	12e#J 12c# 12B/	.	.	.	.	.	.	.
!	!LO:N:TREM:vis=4.	!	!	!	!	!	!	!
(4D#X 4DD#X/	12f#L 12B#X/	.	.	(8b/	.	(8bb\	.	.
.	12f# 12B#/	.	.	.	.	.	.	.
.	.	.	.	8a/J)	.	[8aa\J)	.	.
.	12f#J 12B#/	.	.	.	.	.	.	.
*	*Xtremolo	*	*	*	*	*	*	*
*	*	*	*	*	*xywh-#5:335,861,2614,653	*	*	*
4E 4EE/)	12enL 12c#/	.	.	8a/L	4a\	8ryy	8aa\L]	.
.	12e 12c# 12A/	.	.	.	.	.	.	.
.	.	.	.	(8cc#/	.	(8ccc#/L	8ccc#\J	.
.	12eJ 12c# 12A/	.	[	.	.	.	.	.
*	*tremolo	*	*	*	*	*	*	*
!	!LO:N:TREM:vis=4.	!	!	!	!	!	!	!
4E 4EE/	12eL 12d 12G#X/	.	.	8.ff#/	[4dd\	8.fff#/	[4ddd\	.
.	12e 12d 12G#/	.	.	.	.	.	.	.
.	12eJ 12d 12G#/	.	.	.	.	.	.	.
.	.	.	.	16ee/Jk)	.	16eee/Jk)	.	[
=40	=40	=40	=40	=40	=40	=40	=40	=40
!	!LO:N:TREM:vis=2.	!	!	!	!	!	!	!
4r	12eL 12d 12G#/	.	>	(2ee/	4dd\]	(2eee/	4ddd\]	>
.	12e 12d 12G#/	.	.	.	.	.	.	.
.	12e 12d 12G#/	.	.	.	.	.	.	.
4AA 4AAA/	12e 12d 12G#/	.	.	.	8cc#\L	.	8ccc#\L	.
.	12e 12d 12G#/	.	.	.	.	.	.	.
.	.	.	.	.	8b\J	.	8bb\J	.
.	12eJ 12d 12G#/	.	.	.	.	.	.	.
*	*Xtremolo	*	*	*	*	*	*	*
4AA/	4e 4c# 4A/	.	]	4a/)	4a\	4aa/)	4aa\	]
=:|!|:	=:|!|:	=:|!|:	=:|!|:	=:|!|:	=:|!|:	=:|!|:	=:|!|:	=:|!|:
*>C	*>C	*>C	*>C	*>C	*>C	*>C	*>C	*>C
!LO:TX:a:i:t=espress.	!	!	!	!	!	!	!	!
4A\	4ryy	.	.	4r	4ryy	4r	4ryy	.
*	*	*	*	*v	*v	*	*	*
*	*	*	*	*	*v	*v	*
=41	=41	=41	=41	=41	=41	=41
*	*	*	*^	*	*	*
(4A\	12r	.	.	.	8r	1ryy	.
.	(12f#L 12d#X/	.	.	.	.	.	.
!	!	!	!	!	!LO:TX:a:i:t=dolce	!	!LO:HP:b=2
.	.	.	.	.	(8ff#\L	.	<
.	12bJ 12B/	.	.	.	.	.	.
[>4BB/)	12f#L 12d#/	.	.	.	8.bb\	.	.
.	12b 12B/	.	.	.	.	.	.
.	12f#J 12d#/	.	.	.	.	.	.
.	.	.	.	.	16aa\Jk)	.	[
!	!	!	!	!LO:HP:b=2	!	!	!
8BB\L]	12bL 12B/	.	.	<	(8aa\L	.	.
.	12e/	.	.	.	.	.	.
!	!	!	!	!	!	!	!LO:HP:b=2
(8E\	.	.	.	.	8ggn\	.	>
.	12bJ 12B/	.	.	.	.	.	.
8F#\	12e/L	.	<	.	8ff#\	.	.
.	12b 12B/	.	.	.	.	.	.
8Gn\J)	.	.	.	.	8ee\J)	.	]]
.	12e/J)	.	.	[	.	.	.
*	*	*	*v	*v	*	*	*
=42	=42	=42	=42	=42	=42	=42
(4Gn\	(12bL 12c#/	.	.	1r	8r	] ]
.	12e/	.	.	.	.	.
.	.	.	.	.	(8ccc#\L	<
.	12bJ 12c#/	.	[	.	.	.
4F#\)	12e/L	.	.	.	8.fff#\	.
.	12a#X 12c#/	.	.	.	.	.
.	12e/J	.	.	.	.	.
.	.	.	.	.	16eee\Jk)	[
4r	12a#L 12d/	.	.	.	(8eee\L	.
.	12f#/	.	.	.	.	.
.	.	.	.	.	8ddd\	>
.	12a#J 12d/	.	.	.	.	.
!	!	!	!LO:HP:t=cresc. molto	!	!	!
(4D 4DD/	12f#/L	.	<	.	8ccc#\	.
.	12b 12d/	.	.	.	.	.
.	.	.	.	.	8bb\J)	]]
.	12f#/J)	.	.	.	.	.
!!LO:LB:g=original
=43	=43	=43	=43	=43	=43	=43
*xywh-#4:405,1597,2559,661	*xywh-#4:405,1597,2559,661	*	*	*xywh-#5:275,1508,2654,713	*xywh-#5:275,1508,2654,713	*
4C# 4CC#/	(>12e#XL 12G#X/	.	.	2r	8r	.
.	12c#/	.	.	.	.	.
.	.	.	.	.	(8ccc#\L	<
.	12e#J 12G#/	.	.	.	.	.
4BB#X 4BBB#X/	12d#X/L	.	.	.	8.aaa\	.
.	12f# 12An/	.	.	.	.	.
.	12d#/J	.	.	.	.	.
.	.	.	.	.	16ggg#\Jk)	.
4BBn 4BBBn/)	12g#L 12B/	.	.	8r	(8ggg#\L	.
.	12dn/	.	.	.	.	.
.	.	.	.	(8ff#\L	8fff#\	.
.	12g#J 12B/	.	.	.	.	.
(8.FF#L 8.FFF#/	12c#/L	.	.	8a\	8aa\	.
.	12f# 12A/	.	.	.	.	.
.	.	.	.	8b\J	8bb\J	.
.	12c#/J	.	.	.	.	.
16GG#Jk 16GGG#/	.	.	.	.	.	.
=44	=44	=44	=44	=44	=44	=44
4AA 4AAA/)	12f#L 12A/	.	.	[2cc#\)	8ccc#\L)	.
.	12c#/	.	.	.	.	.
.	.	.	.	.	(8ff#\	.
.	12f#J 12A/	.	.	.	.	.
(4GG#t/	12c#/L	.	.	.	8ee#X\	.
.	12e#X 12B/	.	.	.	.	.
.	.	.	.	.	8bb\J	.
.	12c#/J	.	.	.	.	.
16qqFF#/LL	.	.	.	.	.	.
16qqGG#/JJ	.	.	.	.	.	.
8FF#/)	12f#L 12A/)	.	mf	8cc#\]	8aa\)	.
.	12a 12A/	.	.	.	.	.
8r	.	.	.	8r	8r	.
.	12aJ 12A/	.	.	.	.	.
*	*tremolo	*	*	*	*	*
!	!LO:N:TREM:vis=4.	!	!	!	!	!
4r	12aL 12f# 12A/	.	.	8.r	(8.ff#\L	<
.	12a 12f# 12A/	.	.	.	.	.
.	12aJ 12f# 12A/	.	.	.	.	.
.	.	.	.	16ff#\	16fff#\Jk)	[[
=45	=45	=45	=45	=45	=45	=45
!	!LO:N:TREM:vis=2.	!	!	!	!LO:TX:b:i:t=con gran espressione	!
4r	12gnL 12f# 12d/	.	p	(2ff#\	(4fff#\	.
.	12g 12f# 12d/	.	.	.	.	.
.	12g 12f# 12d/	.	.	.	.	.
(4BB 4BBB/	12g 12f# 12d/	.	.	.	[4ggn\)	.
.	12g 12f# 12d/	.	.	.	.	.
.	12gJ 12f# 12d/	.	.	.	.	.
!	!LO:N:TREM:vis=2.	!	!	!	!	!
4C# 4CC#/	12gL 12e 12c#/	.	.	8ee\L)	8gg\L]	.
.	12g 12e 12c#/	.	.	.	.	.
.	.	.	.	(8cc#\	(8ccc#\	.
.	12g 12e 12c#/	.	.	.	.	.
[4BB [4BBB/)	12g 12e 12c#/	.	.	8dd\	8ddd\	.
.	12g 12e 12c#/	.	.	.	.	.
.	.	.	.	8ee\J)	8eee\J)	.
.	12gJ 12e 12c#/	.	.	.	.	.
=46	=46	=46	=46	=46	=46	=46
!	!LO:N:TREM:vis=2.	!	!	!	!	!
4BB] 4BBB/]	12f#L 12e 12c#/	.	.	(2ee\	(4eee\	.
.	12f# 12e 12c#/	.	.	.	.	.
.	12f# 12e 12c#/	.	.	.	.	.
(8.AA#XL 8.AAA#X/	12f# 12e 12c#/	.	.	.	[4ff#\)	.
.	12f# 12e 12c#/	.	.	.	.	.
.	12f#J 12e 12c#/	.	.	.	.	.
16FF#Jk 16FFF#/	.	.	.	.	.	.
!	!LO:N:TREM:vis=2.	!	!	!	!	!
4BB 4BBB/)	12f#L 12d 12B/	.	.	8dd\L)	8ff#\L]	.
.	12f# 12d 12B/	.	.	.	.	.
.	.	.	.	(8b\	(8bb\	.
.	12f# 12d 12B/	.	.	.	.	.
(4AAn 4AAAn/	12f# 12d 12B/	.	.	8cc#\	8ccc#\	.
.	12f# 12d 12B/	.	.	.	.	.
.	.	.	.	8dd\J)	8ddd\J)	.
.	12f#J 12d 12B/	.	.	.	.	.
*	*Xtremolo	*	*	*	*	*
!LO:LB:g=original	!LO:LB:g=original	!	!	!	!	!
=47	=47	=47	=47	=47	=47	=47
*xywh-#4:325,2212,2633,675	*xywh-#4:325,2212,2633,675	*	*	*	*	*
4GGn 4GGGn/)	12eL 12d 12B/	.	<	8dd/L	8ddd\L	<
.	12d 12B/	.	.	.	.	.
.	.	.	.	(8e/	(8ee\	.
.	12dJ 12B/	.	.	.	.	.
*	*tremolo	*	*	*	*	*
!	!LO:N:TREM:vis=4.	!	!	!	!	!
(4EE 4EEE/	12dL 12B-X/	.	.	8f#/	8ff#\	.
.	12d 12B-/	.	.	.	.	.
.	.	.	.	[8gn/J	[8ggn\J)	.
.	12dJ 12B-/	.	.	.	.	.
!	!LO:N:TREM:vis=4.	!	!	!	!	!
4AA 4AAA/)	12c#L 12A/	.	.	8g/L])	8gg\]	[
.	12c# 12A/	.	.	.	.	.
.	.	.	.	(8ee 8e/	8r	.
.	12c#J 12A/	.	.	.	.	.
!	!LO:N:TREM:vis=4.	!	!	!	!	!
4AA 4AAA/	12AL 12Gn/	.	.	8dd 8d/	4gggn 4eee 4aa 4gg\	.
.	12A 12G/	.	.	.	.	.
.	.	.	.	8cc#J 8c#/)	.	.
.	12AJ 12G/	.	[[	.	.	.
*	*Xtremolo	*	*	*	*	*
!	!	!	!	!LO:LB:g=original	!LO:LB:g=original	!
=48	=48	=48	=48	=48	=48	=48
*	*	*	*	*	*^	*
*	*	*	*	*xywh-#5:335,2168,2621,700	*xywh-#5:335,2168,2621,700	*xywh-#5:335,2168,2621,700	*
4r	12AL 12Gn/	.	>	2.a/	(4gggn 4ggn\	2ccc# 2aa/	>
.	12c# 12A 12G/	.	.	.	.	.	.
.	12c#J 12A 12G/	.	.	.	.	.	.
*	*tremolo	*	*	*	*	*	*
!	!LO:N:TREM:vis=4.	!	!	!	!	!	!
4D 4DD/	12c#L 12A 12G/	.	.	.	8fff#L 8ff#\	.	.
.	12c# 12A 12G/	.	.	.	.	.	.
.	.	.	.	.	8eeeJ 8ee\	.	.
.	12c#J 12A 12G/	.	.	.	.	.	.
*	*Xtremolo	*	*	*	*	*	*
4DD 4DDD/	4d 4A 4F#/	.	]	.	4ddd 4aa 4ff#\)	4ryy	]
=:|!	=:|!	=:|!	=:|!	=:|!	=:|!	=:|!	=:|!
*>D	*>D	*>D	*>D	*>D	*>D	*>D	*>D
!	!LO:TX:a:i:t=sostenuto	!	!	!	!LO:TX:a:i:t=sostenuto	!	!
4A 4D\	4f# 4d/	.	p	4r	4r	4ryy	.
*	*	*	*	*	*v	*v	*
=49	=49	=49	=49	=49	=49	=49
!	!	!	!	!	!LO:TX:b:t=4	!
2A 2F#\	(>2a 2d/	.	.	00r	00r	.
!	!LO:TX:a:B:t=Tempo I.	!	!	!	!	!
4A 4E\	4gn 4c#/	.	.	.	.	.
4A 4D\	4f# [4d/	.	.	.	.	.
=50	=50	=50	=50	=50	=50	=50
*^	*^	*	*	*	*	*
*	*xywh-#4:325,2212,2633,675	*	*	*	*	*	*	*
*	*	*	*xywh-#4:325,2212,2633,675	*	*	*	*	*
[2A/	2A\	2.e/	4d\]	.	<	.	.	.
.	.	.	4c#\	.	.	.	.	.
2A/]	2AA\	.	2cn\	.	[	.	.	.
.	.	4f#/)	.	.	.	.	.	.
=51	=51	=51	=51	=51	=51	=51	=51	=51
2Gn/	(2E\	(4gn/	[1B	.	.	.	.	.
.	.	2e/	.	.	.	.	.	.
2F#/	2BB\	.	.	.	.	.	.	.
.	.	4d/	.	.	.	.	.	.
=52	=52	=52	=52	=52	=52	=52	=52	=52
2F#/	2F#\	2.c#/	4B\]	.	>	.	.	.
.	.	.	4A#X\	.	.	.	.	.
2F#/	2FF#\	.	2An\	.	.	.	.	.
.	.	4d#X/	.	.	.	.	.	.
*v	*v	*	*	*	*	*	*	*
*	*v	*v	*	*	*	*	*
!LO:LB:g=original	!LO:LB:g=original	!	!	!	!	!
=53	=53	=53	=53	=53	=53	=53
*xywh-#4:325,2914,2653,675	*xywh-#4:325,2914,2653,675	*	*	*ped	*	*
!	!	!	!	!	!LO:TX:a:B:t=Tempo I.	!
8CC#/)	8e 8G#X 8E/)	.	.	4r	4r	.
8r	8r	.	]	.	.	.
*	*	*	*	*tuplet	*	*
*	*	*	*	*Xbrackettup	*	*
!	!	!	!	!LO:TUP:b	!	!
4r	4r	.	.	12r	[4gg# [4ee^\	pp
.	.	.	.	12g#L 12e/	.	.
.	.	.	.	12g#J 12e/	.	.
*	*	*	*	*	*tuplet	*
!	!	!	!	!	!LO:TUP:a	!
2r	2r	.	.	[4g# [4e/	12gg#]L 12ee\]	.
.	.	.	.	.	12gg# 12ee\	.
.	.	.	.	.	12gg#J 12ee\	.
!	!	!	!	!LO:TUP:b	!	!
.	.	.	.	12g#]L 12e/]	[4gg# [4ee\	.
.	.	.	.	12g# 12e/	.	.
.	.	.	.	12g#J 12e/	.	.
=54	=54	=54	=54	=54	=54	=54
*	*^	*	*	*	*	*
*	*	*xywh-#4:325,2914,2653,675	*	*	*	*	*
*	*	*	*	*	*Xped	*	*
4r	4r	4ryy	.	.	4g# 4e/	4gg#] 4ee\]	.
(4C# 4CC#/	(2a/	(2.f# 2.d#X\	.	pp >	4r	4r	.
2BB#X 2BBB#X/	.	.	.	.	2r	2r	.
.	4g#/)	.	.	]]	.	.	.
*	*v	*v	*	*	*	*	*
=55	=55	=55	=55	=55	=55	=55
*	*	*	*	*ped	*	*
4C# 4CC#/)	4g# 4e 4c#/)	.	.	4r	4r	.
!	!	!	!	!LO:TUP:b	!	!
4r	4r	.	.	12r	[4gg# [4ee^\	.
.	.	.	.	12g#L 12e/	.	.
.	.	.	.	12g#J 12e/	.	.
!	!	!	!	!	!LO:TUP:a	!
2r	2r	.	.	[4g# [4e/	12gg#]L 12ee\]	.
.	.	.	.	.	12gg# 12ee\	.
.	.	.	.	.	12gg#J 12ee\	.
!	!	!	!	!LO:TUP:b	!	!
.	.	.	.	12g#]L 12e/]	[4gg# [4ee\	.
.	.	.	.	12g# 12e/	.	.
.	.	.	.	12g#J 12e/	.	.
!	!	!	!	!LO:LB:g=original	!LO:LB:g=original	!
=56	=56	=56	=56	=56	=56	=56
*	*^	*	*	*	*	*
*	*	*	*	*	*xywh-#5:289,2828,2694,733	*xywh-#5:289,2828,2694,733	*
*	*	*	*	*	*Xped	*	*
4r	4r	4ryy	.	.	4g# 4e/	4gg#] 4ee\]	.
(4BB 4BBB/	(2gn/	(2.e 2.c#\	.	pp >	4r	4r	.
2AA#X 2AAA#X/	.	.	.	.	2r	2r	.
.	4f#/)	.	.	.	.	.	.
=57	=57	=57	=57	=57	=57	=57	=57
*	*	*	*	*	*ped	*	*
4BB 4BBB/)	4f# 4d 4B/	[2F#\)	.	]	4r	4r	.
*	*	*	*	*	*Xtuplet	*	*
4r	4.ryy	.	.	.	12r	[4ff# [4dd^\	<
.	.	.	.	.	12f#L 12d/	.	.
.	.	.	.	.	12f#J 12d/	.	.
!	!	!	!	!	!	!LO:TUP:a	!
2r	.	8F#\]	.	.	8f# 8d/	12ff#]L 12dd\]	.
.	.	.	.	.	.	12ff# 12dd\	.
.	8r	8ryy	.	.	8r	.	.
.	.	.	.	.	.	12ff#J 12dd\	.
!	!LO:TX:b:i:t=espress.	!	!	!	!	!	!
!	!LO:TX:a:i:t=sotto	!	!	!	!	!LO:TUP:a	!
.	(4d/	4ryy	.	p	12r	12ff#L 12dd\	.
!	!	!	!	!	!LO:TX:b:i:t=sopra	!	!
.	.	.	.	.	12f#L 12B/	12fff# 12ddd 12bb 12ff#\	.
.	.	.	.	.	12f#J 12B/	12fff#J 12ddd 12bb 12ff#\	[[
*	*v	*v	*	*	*	*	*
=58	=58	=58	=58	=58	=58	=58
*	*	*	*	*^	*	*
*	*	*	*	*	*xywh-#5:289,2828,2694,733	*	*
*	*	*	*	*Xped	*	*	*
4r	4..dd\	.	<	8f# 8B/	4ryy	4fff# 4ddd 4bb 4ff#\	.
.	.	.	.	8r	.	.	.
!	!	!	!	!	!	!	!LO:HP:a=2
(<2F# 2D 2GG#X/	.	.	.	2f#/	(8.B\L	4r	<
.	16cc#\	.	.	.	16c#\Jk	.	.
.	4b\	.	.	.	4d\)	2r	[[
[4F# [4D 4AA/	4a/	.	[[	[4f#/	[4d\	.	.
=59	=59	=59	=59	=59	=59	=59	=59
2F#] 2D] 2BB\)	4g#/)	.	.	4f#/_	4d\_	4r	.
*	*	*	*	*ped	*	*	*
.	4r	.	.	12f#]L 12d/]	4ryy	[4ff# [4dd^\	<
.	.	.	.	12f# 12d/	.	.	.
.	.	.	.	12f#J 12d/	.	.	.
*	*	*	*	*	*	*Xtuplet	*
4ryy	4r	.	.	8f# 8d/	2ryy	12ff#]L 12dd\]	.
.	.	.	.	.	.	12ff# 12dd\	.
.	.	.	.	8r	.	.	.
.	.	.	.	.	.	12ff#J 12dd\	.
4r	(4g#/	.	.	12r	.	12ff#L 12dd\	.
.	.	.	.	12f#L 12d 12B/	.	12ggg# 12fff# 12ddd 12gg#\	.
.	.	.	.	12f#J 12d 12B/	.	12ggg#J 12fff# 12ddd 12gg#\	[[
=60	=60	=60	=60	=60	=60	=60	=60
*^	*	*	*	*	*	*	*
*	*xywh-#4:325,2914,2653,675	*	*	*	*	*	*	*
*	*	*	*	*	*Xped	*	*	*
4r	4ryy	4..ff#\)	.	<	8f# 8d 8B/	4ryy	4ggg# 4fff# 4ddd 4gg#\	.
.	.	.	.	.	8r	.	.	.
!	!	!	!	!	!	!	!	!LO:HP:a=2
2G# 2F#/	(2BB\	.	.	.	2g#/	(8.d\L	4r	<
.	.	16ee\	.	.	.	16e\Jk	.	.
.	.	4dd\	.	.	.	4f#\)	2r	.
4A [<4F#/	4C#\	4cc#\	.	[[	(4a/	[4f#\	.	.
*	*	*	*	*	*v	*v	*	*
!!LO:PB:g=original
=61	=61	=61	=61	=61	=61	=61	=61
*	*	*	*	*	*	*	*^
*xywh-#6:392,206,2560,693	*xywh-#6:392,206,2560,693	*xywh-#6:392,206,2560,693	*	*	*xywh-#7:348,234,2556,609	*xywh-#7:348,234,2556,609	*	*
2.B/	2.F#] 2.D\)	4b\	.	.	[4g# 4f#_/)	4r	.	.
.	.	4r	.	.	12g#]L 12f#/]	[4ff# [4dd^\	<	.
.	.	.	.	.	12g# 12f# 12d/	.	.	.
.	.	.	.	.	12g#J 12f# 12d/	.	.	.
.	.	4r	.	.	8g# 8f# 8d/	12ff#]L 12dd\]	.	.
.	.	.	.	.	.	12ff# 12dd\	.	.
.	.	.	.	.	8r	.	.	.
.	.	.	.	.	.	12ff#J 12dd\	[	.
*	*	*tuplet	*	*	*	*	*	*
*	*	*Xbrackettup	*	*	*	*	*	*
!	!	!	!	!	!	!	!LO:HP:b=2	!
4r	4ryy	12r	.	.	(8.b\L	12ff#L 12dd\	<	.
.	.	12f#L 12d 12G#/	.	f	.	12fff# 12ddd 12gg# 12ff#\	.	f
.	.	12f#J 12d 12G#/	.	.	.	12fff#J 12ddd 12gg# 12ff#\	[[	.
.	.	.	.	.	16bb\Jk)	.	.	.
*v	*v	*	*	*	*	*	*v	*v
=62	=62	=62	=62	=62	=62	=62
4r	8f# 8d 8G#/	.	.	8bb\	8fff# 8ddd 8gg# 8ff#\	.
.	8r	.	.	8r	8r	.
(4BB 4BBB/	(4G#/	.	p	(4f#/	(4dd\	p
4AA 4AAA/	4F#/	.	.	4d#X/	4cc#\	.
4GG# 4GGG#/)	4B/	.	.	4e#X/)	4b\)	.
=63	=63	=63	=63	=63	=63	=63
!	!	!	!LO:HP:a=2	!	!	!
(4FF# 4FFF#/	2c#/)	.	<	(2.f#/	(2a/	<
4AA 4AAA/)	.	.	.	.	.	.
(4BB 4BBB/	(4d/	.	.	.	2gn/	.
4C# 4CC#/)	4B-X/	.	[	4en/)	.	.
=64	=64	=64	=64	=64	=64	=64
*	*	*	*	*	*	*^
!	!	!	!	!	!	!LO:DY:a	!LO:DY:b=2
(4.D 4.DD/	2A/	.	sfz	(2e/	2.f#/)	[ sfz	sfz
8C# 8CC#/	.	.	.	.	.	.	.
4BB 4BBB/	2Bn/	.	>	2d/)	.	.	.
4AA 4AAA/)	.	.	.	.	4f#/	>	.
*	*	*	*	*	*	*v	*v
=65	=65	=65	=65	=65	=65	=65
*	*	*	*	*^	*	*
*	*	*	*	*	*xywh-#7:348,234,2556,609	*xywh-#7:348,234,2556,609	*
(2GG# 2GGG#/	2B/	.	.	(2d/	2ryy	2.f#/	.
2C# 2CC#/	4G#/	.	.	(4c#/)	[2c#\	.	.
!	!	!	!	!	!	!LO:TX:b:i:t=dolce	!
.	8A/L	.	.	4e#X/)	.	(4cc#\	]
.	8B/J	.	.	.	.	.	.
=66	=66	=66	=66	=66	=66	=66	=66
*	*	*	*	*	*	*^	*
8FF# 8FFF#/)	8A/)	.	]	8f# 8c#/]	4ryy	([2ff#/)	4ryy	.
8r	8r	.	.	8r	.	.	.	.
4r	4r	.	.	(2a/	(4f#\	.	(4dd\	<
2r	2r	.	.	.	4en\	12ff#/L]	4cc#\	.
.	.	.	.	.	.	12gg#/	.	.
.	.	.	.	.	.	12aa/J	.	.
.	.	.	.	4a/	4d#X\	8.gg#/L	4b#X\)	.
.	.	.	.	.	.	16ff#/Jk)	.	[[
*	*	*	*	*v	*v	*	*	*
!	!	!	!	!LO:LB:g=original	!LO:LB:g=original	!	!
=67	=67	=67	=67	=67	=67	=67	=67
*	*	*	*	*	*	*	*^
*	*	*	*	*xywh-#7:274,762,2643,609	*xywh-#7:274,762,2643,609	*xywh-#7:274,762,2643,609	*	*
2r	2r	.	.	8g# 8dn/))	(2ff# [2bn\	2ryy	>	.
.	.	.	.	8r	.	.	.	.
!	!	!	!	!	!	!	!	!LO:HP:b=2
.	.	.	.	(8.d/L	.	.	.	<
.	.	.	.	16b/Jk)	.	.	.	.
8.r	4r	.	.	([4b/	8ee#X 8b\])	4ryy	]	[
.	.	.	.	.	8r	.	.	.
(48CC#/LLL	.	.	p	.	.	.	.	.
48C#/	.	.	.	.	.	.	.	.
[48CC#/JJJ)	.	.	.	.	.	.	.	.
!	!	!	!	!	!	!	!	!LO:HP:b=2
(4C# 4CC#/]	(>4e#X [>4c# 4B/	.	>	12b/L]	(8.cc#/L	(4cc#\	<	>
.	.	.	.	12a/	.	.	.	.
.	.	.	.	12g#/J	.	.	.	.
.	.	.	.	.	16ccc#/Jk)	.	[	.
*	*	*	*	*	*	*	*v	*v
!LO:LB:g=original	!LO:LB:g=original	!	!	!	!	!	!
=68	=68	=68	=68	=68	=68	=68	=68
*xywh-#6:332,833,2627,620	*xywh-#6:332,833,2627,620	*	*	*	*	*	*
4FF# 4FFF#/)	4f# 4c#] 4A/)	.	]]	8a/)	8ccc# 8ff#\)	4ryy	]
.	.	.	.	8r	8r	.	.
!	!	!	!	!	!LO:TX:b:i:t=dolce	!	!
4r	4r	.	.	(2a 2f#/	[4ff#/	(4dd\	.
2r	2r	.	.	.	(12ff#/L]	4cc#\)	.
.	.	.	.	.	12gg#/	.	.
.	.	.	.	.	12aa/J	.	.
.	.	.	.	4a 4e'/)	8.gg#/L	4cc#\	<
.	.	.	.	.	16ff#/Jk)	.	.
*	*	*	*	*	*v	*v	*
=69	=69	=69	=69	=69	=69	=69
2r	4r	.	.	(2a [2d#X/	(2ccc# 2aa 2ff# (2cc#\	[
.	(8.A/L	.	<	.	.	>
.	16f#/Jk)	.	.	.	.	.
8.r	8f#/	.	[	8g# 8d#/])	8bb#X 8gg# 8ff# 8b#X\))	]
.	8r	.	.	8r	8r	.
(48GGG#/LLL	.	.	.	.	.	.
48GG#/	.	.	.	.	.	.
[48GGG#/JJJ)	.	.	.	.	.	.
(4GG# 4GGG#/]	(>4f# 4d#X 4B#X 4F#/	.	.	(4b#X\	(8.ff#\L	<
.	.	.	.	.	16bbn\Jk)	[[
=70	=70	=70	=70	=70	=70	=70
*	*^	*	*	*	*	*^
*	*	*xywh-#6:332,833,2627,620	*	*	*	*	*	*
4GGn 4GGGn/)	8eL 8Bn/)	[2E\	.	.	2.bn\)	(4.bb\	.	.
.	(8B/	.	.	.	.	.	.	.
4r	8c#/	.	.	.	.	.	.	.
.	8d#X/J	.	.	.	.	8ggn\	.	.
4r	4e 4E]/)	2ryy	.	.	.	8ee\L)	.	.
.	.	.	.	.	.	(8ff#\	.	.
(4C#/	[4e/	.	.	.	[4a/	8.aa^\	<	.
.	.	.	.	.	.	16gg\Jk	.	.
*	*v	*v	*	*	*	*	*	*
=71	=71	=71	=71	=71	=71	=71	=71
4D\	(8e/]	.	<	8a/L]	4.ff#\)	.	.
!	!	!	!	!	!	!	!LO:HP:b=2
.	4dn/	.	.	(8f#/	.	.	<
8E\L	.	.	.	8g#X/	.	.	.
8F#\J	[8c#/	.	.	8a#X/J	[8ee\	.	.
4BB/)	8c#/L])	.	.	4.f#/)	8ee\L]	.	[
.	(8B/	.	[	.	(8dd\	.	.
4r	8e/	.	.	.	8cc#\	.	.
.	8d/J	.	.	8r	8b\J)	[[	.
!	!	!	!	!LO:LB:g=original	!LO:LB:g=original	!	!
*	*	*	*	*	*	*v	*v
=72	=72	=72	=72	=72	=72	=72
*	*	*	*	*xywh-#7:368,1318,2549,588	*xywh-#7:368,1318,2549,588	*
4r	4.f#/	.	.	2r	(4a/	.
!	!	!	!LO:DY:b=2	!	!	!
8.G#XL 8.F# 8.D 8.BB\	.	.	p >	.	[>4g#/)	.
.	8d/	.	.	.	.	.
16G#Jk 16F# 16D 16BB\	.	.	.	.	.	.
8G# 8F# 8D 8BB\	8B/)	.	]	8r	8g#\L]	.
8r	8r	.	.	(8g#\L	(8gg#\	<
4r	4r	.	.	8b\	8bb\	.
.	.	.	.	8dd\J)	8ddd\J)	[[
=73	=73	=73	=73	=73	=73	=73
*	*	*	*	*	*^	*
*	*	*	*	*	*	*xywh-#7:368,1318,2549,588	*
!	!LO:TX:b:t=1	!	!	!	!	!	!
1r	1r	.	.	4r	(2ddd (2dd\	4r	.
.	.	.	.	(4a 4B#X/	.	(4ff#/	>
.	.	.	.	8g# 8c#/)	8ccc# 8ee#X) 8cc#\))	2ryy	]
.	.	.	.	8r	8r	.	.
!	!	!	!	!LO:TX::i:t=espress.	!	!	!
.	.	.	.	(4c#/	4r	.	.
*	*clefF4	*	*	*	*	*	*
*	*	*	*	*	*v	*v	*
!LO:LB:g=original	!LO:LB:g=original	!	!	!	!	!
=74	=74	=74	=74	=74	=74	=74
*xywh-#6:425,1373,2514,620	*xywh-#6:425,1373,2514,620	*	*	*	*	*
8r	8r	.	.	([2f#/)	1r	.
(8FF#L 8FFF#/	(8AL 8AA\	.	p <	.	.	.
8GGn 8GGGn/	8B 8BB\	.	.	.	.	.
8GG#XJ 8GGG#X/	8B#XJ 8BB#X\	.	.	.	.	.
!	!	!	!	!	!	!LO:HP:a=2
8AA 8AAA/)	8c# 8C#\)	.	[	12f#/L]	.	<
.	.	.	.	12g#/	.	.
8r	8r	.	.	.	.	.
.	.	.	.	12a/J	.	.
!	!LO:TX:b:i:t=espress.	!	!	!	!	!
4r	(8.Bn\L	.	<	8.g#/L	.	.
.	16d\Jk)	.	[	16f#/Jk)	.	[
=75	=75	=75	=75	=75	=75	=75
*	*^	*	*	*	*	*^
*	*	*xywh-#6:425,1373,2514,620	*	*	*	*	*	*
!	!	!	!	!	!	!	!LO:HP:a=2	!
4r	(4.d/	4r	.	.	(2f#/	([2bb [2b\	>	p
(4GG# 4GGG#/	.	(4G# 4F#\	.	>	.	.	.	.
.	8B/	.	.	.	.	.	.	<
4C# 4CC#/)	4G#/)	4E#X\)	.	]	8e#X/)	12bb]L 12b\]	]	.
.	.	.	.	.	.	12ccc# 12cc#\	.	.
.	.	.	.	.	8r	.	.	.
.	.	.	.	.	.	12dddJ 12dd\	.	.
4r	4r	4ryy	.	.	(4c#/	8.ccc#L 8.cc#\	.	.
.	.	.	.	.	.	16bbJk 16b\)	.	[[
*	*v	*v	*	*	*	*	*v	*v
=76	=76	=76	=76	=76	=76	=76
8r	8r	.	.	([2f#/)	4aa 4a\	<
(8CnL 8CCn/	(8enL 8En\	.	<	.	.	.
8BB 8BBB/	8d#X 8D#X\	.	.	.	4r	.
8BB-XJ 8BBB-X/	8dnJ 8Dn\	.	.	.	.	.
8AA 8AAA/)	8c# 8C#\)	.	[	12f#/L]	4r	.
.	.	.	.	12g#/	.	.
8r	8r	.	.	.	.	.
.	.	.	.	12a/J	.	[
*	*clefG2	*	*	*	*	*
4r	(8.c#/L	.	<	8.g#/L	4ccc# 4cc#\	.
.	16a/Jk)	.	[	16f#/Jk)	.	.
!	!	!	!	!LO:LB:g=original	!LO:LB:g=original	!
=77	=77	=77	=77	=77	=77	=77
*	*^	*	*	*	*	*
*	*	*xywh-#6:425,1373,2514,620	*	*	*xywh-#7:328,1847,2623,575	*xywh-#7:328,1847,2623,575	*
4r	(4.a/	4r	.	>	(2cc#\	[2fff# [2ff#\	<
(4D#X 4DD#X/	.	4c# 4A\	.	.	.	.	.
.	8f#/	.	.	.	.	.	.
8GG# 8GGG#/)	8d#X 8B#X 8G#/)	2ryy	.	]	12b#X\L)	12fff#]L 12ff#\]	.
.	.	.	.	.	(12gg#\	(12ggg#\	.
8r	8r	.	.	.	.	.	.
.	.	.	.	.	12aa\J	12aaa\J	.
(4G# (4GG#/	(4f# (4B#/	.	.	<	8.gg#\L	8.ggg#\L	.
.	.	.	.	.	16ff#\Jk)	16fff#\Jk)	.
=78	=78	=78	=78	=78	=78	=78	=78
[2Gn [2GGn/))	8e 8Bn/))	4ryy	.	[	(4.bbn\	(4.bbbn\	f
.	8r	.	.	mf	.	.	.
.	(8.b/L	4e [4B\	.	.	.	.	.
.	.	.	.	.	8ggn\	8gggn\	.
.	16gn/Jk	.	.	.	.	.	.
8G] 8GG/]	8e/)	8B\]	.	.	8ee\L)	8eee\L)	.
8r	8r	8ryy	.	.	(8ff#\	(8fff#\	.
(4C# 4CC#/	8.aL 8.e 8.A/	4ryy	.	>	8.aa\	8.aaa\	.
.	16aJk 16A/	.	.	]	16gg\Jk	16ggg\Jk)	.
!LO:LB:g=original	!LO:LB:g=original	!	!	!	!	!	!
=79	=79	=79	=79	=79	=79	=79	=79
*xywh-#6:345,1913,2614,606	*	*xywh-#6:345,1913,2614,606	*	*	*	*	*
8D 8DD/)	8a 8f# 8A/	4ryy	.	.	4.ff#\	(4.fff#\	.
8r	8r	.	.	.	.	.	.
(4Gn 4GGn/	(8.f#/L	4c# [4A\	.	<	.	.	.
.	.	.	.	.	[8ee\)	[8eee\)	.
.	16e/Jk	.	.	.	.	.	.
8F# 8FF#/)	8aL 8d 8A/])	2ryy	.	[	8ee\L]	8eee\L]	.
8r	(8d/	.	.	.	(8dd\	(8ddd\	.
4r	8A/	.	.	.	8a\	8aa\	.
.	8B/J	.	.	.	8b\J	8bb\J	.
=80	=80	=80	=80	=80	=80	=80	=80
2r	4c#'/)	2.ryy	.	.	8cc#\)	8ccc#\)	.
.	.	.	.	.	8r	8r	.
!	!	!	!	!	!	!LO:TX:b:i:t=armonioso	!
.	2G#X/	.	.	p	8.g#XL 8.e#X/	8.ccc#L 8.ee#X 8.cc#\	p
.	.	.	.	.	16g#Jk 16e#/	16ccc#Jk 16ee# 16cc#\	.
4r	.	.	.	<	4g# 4e#/	4ccc# 4ee# 4cc#\	.
.	8qB/	.	.	.	.	.	.
(4GG#X 4GGG#X/	(8.A/L	(4F#\	.	.	([4g# 4f#/	(4bb#X 4ff# 4b#X\	.
.	16G#/Jk)	.	.	[	.	.	.
=81	=81	=81	=81	=81	=81	=81	=81
8C# 8CC#/)	8G#/	4E#X\)	.	>	8g#] 8e#X/)	[2ccc# [2ee#X [2cc#\)	.
8r	8r	.	.	]	8r	.	.
*	*clefF4	*	*	*	*	*	*
!	!	!	!	!	!	!	!LO:HP:a=2
(8.GG#/L	(8.G#\L	4ryy	.	>	(8.g#/L	.	>
16EE#X/Jk	16E#X\Jk	.	.	.	16e#/Jk	.	.
8CC#/)	8C#/)	2ryy	.	]	8c#/)	8ccc#] 8ee#] 8cc#\]	]
8r	8r	.	.	.	8r	8r	.
*	*clefG2	*	*	*	*	*	*
4r	4cc# 4c#/	.	.	mf	4r	4r	.
!	!	!	!	!	!LO:LB:g=original	!LO:LB:g=original	!
=82	=82	=82	=82	=82	=82	=82	=82
*	*	*	*	*	*xywh-#7:287,2349,2656,669	*xywh-#7:287,2349,2656,669	*
8.r	(2cc# 2c#/	4r	.	.	4r	2r	.
!	!	!	!	!LO:HP:b=2	!	!	!
48BB#X/LLL	.	.	.	<	.	.	.
48C#/	.	.	.	.	.	.	.
48D#X/JJJ	.	.	.	.	.	.	.
!	!	!	!	!	!	!	!LO:DY:a=2
8En\L	.	(4a#X 4g#\	.	.	8.r	.	mf
16r	.	.	.	.	.	.	.
!	!	!	!	!	!	!	!LO:HP:a=2
16E\Jk	.	.	.	[	(48B/LLL	.	<
.	.	.	.	.	48A#X/	.	.
.	.	.	.	.	48G#/JJJ	.	.
.	8qdd#X/	.	.	.	.	.	.
*	*Xtuplet	*	*	*	*	*	*
2D#\	12cc#L 12f##X 12c#/))	2ryy	.	.	8F##X'/)	8.r	[
.	(12b#X 12B#X/	.	.	.	.	.	.
.	.	.	.	.	8r	.	.
.	12cc#J 12c#/	.	.	.	.	.	.
!	!	!	!	!	!	!	!LO:DY:b=1
!	!	!	!	!	!	!	!LO:HP:b=1
.	.	.	.	.	.	(64aa\LLLL	mf <
.	.	.	.	.	.	64aa#X\	.
.	.	.	.	.	.	64bb\	.
.	.	.	.	.	.	64bb#X\JJJJ	.
.	12dd#XL 12d#X/	.	.	.	4r	8ccc#'\)	[
.	12een 12en/	.	.	.	.	.	.
.	.	.	.	.	.	8r	.
.	12f##J 12F##X/)	.	.	.	.	.	.
=83	=83	=83	=83	=83	=83	=83	=83
8.r	[2g# [<2G#/	4r	.	.	2r	2r	.
!	!	!	!	!LO:HP:b=2	!	!	!
(48AA#X/LLL	.	.	.	<	.	.	.
48BB/	.	.	.	.	.	.	.
48C#/JJJ	.	.	.	.	.	.	.
8Dn/L)	.	4f# [4B\	.	.	.	.	.
16r	.	.	.	[	.	.	.
(48D/LL	.	.	.	.	.	.	.
48C#/	.	.	.	.	.	.	.
48BB/JJJ	.	.	.	.	.	.	.
4C#/)	4g#] 4e#X 4B] 4G#/]	2ryy	.	.	8.r	8.r	.
*	*	*	*	*	*tuplet	*tuplet	*
!	!	!	!	!	!LO:TUP:a	!LO:TUP:a	!
.	.	.	.	.	(48aa\LLL	(48aaa\LLL	<
.	.	.	.	.	48gg#\	48ggg#\	.
.	.	.	.	.	48ff#\JJJ	48fff#\JJJ	.
4C# 4CC#/	(12bL 12B'/	.	.	.	8ee#X'\)	8eee#X'\)	[
.	12a 12A'/	.	.	.	.	.	.
.	.	.	.	.	8r	8r	.
.	12g#J 12G#'/)	.	.	.	.	.	.
!LO:LB:g=original	!LO:LB:g=original	!	!	!	!	!	!
=84	=84	=84	=84	=84	=84	=84	=84
*	*	*	*	*^	*	*	*
*xywh-#6:425,2487,2567,546	*xywh-#6:425,2487,2567,546	*xywh-#6:425,2487,2567,546	*	*	*	*	*	*
8.r	(2f# 2F#/	4r	.	<	.	2r	2r	.
!	!	!	!	!	!LO:HP:b=2	!	!	!
(48AAAn/LLL	.	.	.	.	<	.	.	.
48BBB/	.	.	.	.	.	.	.	.
48CC#/JJJ	.	.	.	.	.	.	.	.
8DD/L)	.	4d 4A'>\	.	.	.	.	.	.
16r	.	.	.	.	.	.	.	.
(48DD/LL	.	.	.	.	.	.	.	.
48EE/	.	.	.	.	.	.	.	.
48FF#/JJJ	.	.	.	.	.	.	.	.
8GGn/)	2b 2B/	4f#\	.	.	[	4r	4r	.
8r	.	.	.	.	.	.	.	.
*	*	*	*	*	*	*	*8va	*
8.r	.	8.en\L	.	.	.	4ggn 4een 4dd'\	4eeen 4ddd 4bb'\	f
(48GG/LLL	.	16d\Jk	.	.	.	.	.	.
48FF#/	.	.	.	.	.	.	.	.
48EE/JJJ	.	.	.	[[	.	.	.	.
*	*	*	*	*v	*v	*	*	*
=85	=85	=85	=85	=85	=85	=85	=85
8D 8DD/)	8.aL 8.f#/)	[2A\	.	[	8ff# 8dd'\	8fff# 8ddd 8aa'\	.
8r	.	.	.	.	8r	8r	.
.	(16f#/Jk	.	.	.	.	.	.
!	!	!	!	!LO:DY:b=2:rj	!	!	!
(16DD/LL	8.d/L	.	.	ff	(16dd\LL	(16ddd\LL	ff
32EE/L	.	.	.	.	32ee\L	32eee\L	.
32FF#/JJJ	.	.	.	.	32ff#\JJJ	32fff#\JJJ	.
32GGn/LLL	.	.	.	.	32ggn\LLL	32gggn\LLL	.
32AA/	.	.	.	.	32aa\	32aaa\	.
32BB/	16e/Jk	.	.	.	32bb\	32bbb\	.
32C#/JJJ	.	.	.	.	32ccc#\JJJ	32cccc#\JJJ	.
8D\)	8f# 8A/])	2ryy	.	.	8ddd\)	8dddd\)	.
*	*	*	*	*	*	*X8va	*
8r	8r	.	.	.	8r	8r	.
4r	4f# 4F#/	.	.	.	4r	4r	.
!	!	!	!	!	!LO:LB:g=original	!LO:LB:g=original	!
=86	=86	=86	=86	=86	=86	=86	=86
*	*	*	*	*	*xywh-#7:348,2984,2630,588	*xywh-#7:348,2984,2630,588	*
!	!	!	!	!LO:DY:t=più f:rj	!	!	!
8.r	(2f# 2F#/	4r	.	f	4r	2r	.
!	!	!	!	!LO:HP:b=2	!	!	!
(48EE#X/LLL	.	.	.	<	.	.	.
48FF#/	.	.	.	.	.	.	.
48GG#X/JJJ	.	.	.	.	.	.	.
8AA/L)	.	(4d#X 4c#\	.	[	8.r	.	.
16r	.	.	.	.	.	.	.
*	*	*	*	*	*Xtuplet	*	*
!	!	!	!	!	!	!	!LO:DY:a=2
!	!	!	!	!	!	!	!LO:HP:a=2
(16AA/Jk	.	.	.	.	(48ee\LLL	.	f <
.	.	.	.	.	48dd#X\	.	.
.	.	.	.	.	48cc#\JJJ	.	.
.	8qg#/	.	.	.	.	.	.
2GG#/)	12f#L 12B#X 12F#/))	2ryy	.	.	8b#X'\)	8.r	[
.	(12e#X 12E#X/	.	.	.	.	.	.
.	.	.	.	.	8r	.	.
.	12f#J 12F#/	.	.	.	.	.	.
!	!	!	!	!	!	!	!LO:HP:b=1
.	.	.	.	.	.	(64ddd\LLLL	<
.	.	.	.	.	.	64ddd#X\	.
.	.	.	.	.	.	64eee\	.
.	.	.	.	.	.	64eee#X\JJJJ	.
.	12g#L 12G#/	.	.	.	4r	8fff#'\)	[
.	12a 12A/	.	.	.	.	.	.
.	.	.	.	.	.	8r	.
.	12B#X/J)	.	.	.	.	.	.
!LO:LB:g=original	!LO:LB:g=original	!	!	!	!	!	!
=87	=87	=87	=87	=87	=87	=87	=87
*xywh-#6:345,2954,2654,746	*xywh-#6:345,2954,2654,746	*xywh-#6:345,2954,2654,746	*	*	*	*	*
*	*	*	*below	*	*	*	*
8.r	4r	[2c#\	3_1	.	2r	2r	.
!	!	!	!	!LO:HP:b=2	!	!	!
(48DD#X/LLL	.	.	.	<	.	.	.
48EEn/	.	.	.	.	.	.	.
48FF#/JJJ	.	.	.	.	.	.	.
8GGn/L)	[4cc# 4bn [<4en/	.	.	[	.	.	.
16r	.	.	.	.	.	.	.
(48GG/LL	.	.	.	.	.	.	.
48FF#/	.	.	.	.	.	.	.
48EE/JJJ	.	.	.	.	.	.	.
4FF#/)	4cc#] 4a#X 4e] 4c#/]	2ryy	.	.	8.r	8.r	.
*	*	*	*	*	*	*8va	*
*	*	*	*	*	*	*Xtuplet	*
.	.	.	.	.	(48dddn\LLL	(48ddddn\LLL	<
.	.	.	.	.	48ccc#\	48cccc#\	.
.	.	.	.	.	48bb\JJJ	48bbb\JJJ	.
4FF# 4FFF#/	(12eeL 12e'/	.	.	.	8aa#X'\)	8aaa#X'\)	[
*	*	*	*	*	*	*X8va	*
.	12dd 12d'/	.	.	.	.	.	.
.	.	.	.	.	8r	8r	.
.	12cc#J 12c#'/)	.	.	.	.	.	.
=88	=88	=88	=88	=88	=88	=88	=88
*	*	*	*	*^	*	*	*
8.r	(2b 2B/	4r	.	<	.	2r	2r	.
!	!	!	!	!	!LO:HP:b=2	!	!	!
(48DD/LLL	.	.	.	.	<	.	.	.
48EE/	.	.	.	.	.	.	.	.
48FF#/JJJ	.	.	.	.	.	.	.	.
8GGn/L)	.	4gn 4d'>\	.	.	.	.	.	.
16r	.	.	.	.	.	.	.	.
(48GG/LL	.	.	.	.	.	.	.	.
48AA/	.	.	.	.	.	.	.	.
48BB/JJJ	.	.	.	.	[	.	.	.
!LO:S:s=1:note:problem=note-level slur	!	!	!	!	!	!	!	!
8Cn 8CCn/)	2ee 2e/	4b\	.	.	.	4r	4r	.
8r	.	.	.	.	.	.	.	.
8.r	.	8.a\L	.	.	.	4cccn 4aan 4ggn'\	4aan 4ggn 4ee'\	.
(48CC/LLL	.	16g\Jk	.	[[	.	.	.	.
48BBB/	.	.	.	.	.	.	.	.
48AAA/JJJ	.	.	.	.	.	.	.	.
*	*	*	*	*v	*v	*	*	*
=89	=89	=89	=89	=89	=89	=89	=89
8GGn 8GGGn/)	8.ddL 8.b/)	[2d\	.	.	8bb 8ggn'\	8bb 8ggn 8dd'\	.
8r	.	.	.	.	8r	8r	.
.	(16b/K	.	.	.	.	.	.
!	!	!	!	!LO:DY:b=2	!	!	!
(16GG/LL	8.gn/	.	.	ff	16r	(16gg\LL	ff
32AA/L	.	.	.	.	(32a\LLL	32aa\L	.
32BB/JJJ	.	.	.	.	32b\JJ	32bb\JJJ	.
32Cn\LLL	.	.	.	.	32ccn\LL	32cccn\LLL	.
32D\	.	.	.	.	32dd\	32ddd\	.
32E\	16a/Jk	.	.	.	32ee\	32eee\	.
32F#\JJJ	.	.	.	.	32ff#\JJJ	32fff#\JJJ	.
8Gn\)	8b 8d/])	2ryy	.	.	8ggn\)	8gggn\)	.
8r	8r	.	.	.	8r	8r	.
4BB 4BBB/	4r	.	.	.	4r	4r	.
*	*v	*v	*	*	*	*	*
!!LO:PB:g=original
=90	=90	=90	=90	=90	=90	=90
*	*	*	*	*	*	*^
*xywh-#8:368,146,2563,727	*xywh-#8:368,146,2563,727	*	*	*xywh-#9:259,174,2676,751	*xywh-#9:259,174,2676,751	*	*xywh-#9:259,174,2676,751
*	*	*	*	*tuplet	*	*	*
!	!	!	!	!LO:TUP:a	!	!	!
[2F# [2FF#/	[2a [2f# [>2B#X [2A/	.	ff	12r	12r	.	.
!	!	!	!	!	!	!	!LO:HP:a=2:t=cresc. molto
.	.	.	.	12b#X\L	12bb#XL 12aa 12ff#\	<	<
.	.	.	.	12b#\J	12bb#J 12aa 12ff#\	.	.
*	*	*	*	*tremolo	*tremolo	*	*
!	!	!	!	!LO:N:TREM:vis=4.	!LO:N:TREM:vis=4.	!	!
.	.	.	.	12b#\L	12bb#L 12aa 12ff#\	.	.
.	.	.	.	12b#\	12bb# 12aa 12ff#\	.	.
.	.	.	.	12b#\J	12bb#J 12aa 12ff#\	.	.
*	*	*	*	*Xtremolo	*Xtremolo	*	*
*	*	*	*	*Xtuplet	*	*	*
!LO:TX:b:i:t=marcato	!	!	!	!	!	!	!
12F#]L 12FF#/]	8a] 8f#] 8B#] 8A/]	.	.	(12b#\L	(12bb#L 12aa 12ff#\	.	.
(12G# 12GG#~/	.	.	.	12cc#\)	12ccc# 12aa 12ff#\)	.	.
.	8r	.	.	.	.	.	.
12AJ 12AA~/	.	.	.	12cc#\J	12ccc#J 12aa 12ff#\	.	.
*	*	*	*	*tremolo	*tremolo	*	*
!	!	!	!	!LO:N:TREM:vis=4.	!LO:N:TREM:vis=4.	!	!
8.G#L 8.GG#~/)	4r	.	.	12cc#\L	12ccc#L 12aa 12ff#\	[	.
.	.	.	.	12cc#\	12ccc# 12aa 12ff#\	.	.
.	.	.	.	12cc#\J	12ccc#J 12aa 12ff#\	.	.
*	*	*	*	*Xtremolo	*Xtremolo	*	*
16F#Jk 16FF#/	.	.	.	.	.	.	.
*	*	*	*	*	*	*v	*v
=91	=91	=91	=91	=91	=91	=91
*	*	*	*^	*	*^	*
*	*	*	*	*	*xywh-#9:306,925,2609,610	*xywh-#9:306,925,2609,610	*xywh-#9:259,174,2676,751	*
!	!	!	!	!LO:HP:b=2	!	!	!	!
(2F# (2FF#/	12r	.	.	>	(12cc#\L	2ryy	(12ccc#L 12bbn 12gg#\	.
.	12bnL 12g# 12d/	.	>	.	12dd\)	.	12ddd 12bb 12gg#\)	.
.	12bJ 12g# 12d/	.	.	.	12dd\J	.	12dddJ 12bb 12gg#\	.
.	(12bL 12g# 12d/	.	.	.	(12dd\L	.	(12dddL 12bb 12gg#\	>
.	12b 12g# 12c#/)	.	.	.	12cc#\)	.	12ccc# 12bb 12gg#\)	.
.	12bJ 12g# 12c#/	.	.	.	12cc#\J	.	12ccc#J 12bb 12gg#\	.
*	*	*	*	*	*	*	*tremolo	*
!LO:N:vis=4	!	!	!	!	!	!	!LO:N:TREM:vis=2.	!
8E#X 8EE#X/))	(12bL 12g# 12c#/	.	.	]	(12cc#\L	(12ccc#/L	12bbL 12gg#\	.
.	12b 12g# 12B#X/)	.	.	.	12b#X\)	12bb#X/)	12bb 12gg#\	.
8r	.	.	.	.	.	.	.	.
.	12bJ 12g# 12B#/	.	.	.	12b#\J	12bb#y/J	12bb 12gg#\	.
4C# 4CC#/	(12bL 12g# 12B#/	.	.	.	(12b#\L	(12bb#y/L	12bb 12gg#\	.
.	12b 12g# 12c#/)	.	.	.	12cc#\)	12ccc#/)	12bb 12gg#\	.
.	12bJ 12g# 12c#/	.	]	.	12cc#\J	12ccc#/J	12bbJ 12gg#\	]]
*	*	*	*	*	*	*	*Xtremolo	*
*	*	*	*v	*v	*	*v	*v	*
=92	=92	=92	=92	=92	=92	=92
*	*	*	*	*	*	*
[2F# [2FF#/	[2a [2f# [>2B#X [2A/	.	ff	12r	12r	.
.	.	.	.	12b#X\L	12bb#XL 12aa 12ff#\	<
.	.	.	.	12b#\J	12bb#J 12aa 12ff#\	.
*	*	*	*	*tremolo	*tremolo	*
!	!	!	!	!LO:N:TREM:vis=4.	!LO:N:TREM:vis=4.	!
.	.	.	.	12b#\L	12bb#L 12aa 12ff#\	.
.	.	.	.	12b#\	12bb# 12aa 12ff#\	.
.	.	.	.	12b#\J	12bb#J 12aa 12ff#\	.
*	*	*	*	*Xtremolo	*Xtremolo	*
12F#]L 12FF#/]	8a] 8f#] 8B#] 8A/]	.	.	(12b#\L	(12bb#L 12aa 12ff#\	.
(12G# 12GG#~/	.	.	.	12cc#\)	12ccc# 12aa 12ff#\)	.
.	8r	.	.	.	.	.
12AJ 12AA~/	.	.	.	12cc#\J	12ccc#J 12aa 12ff#\	.
*	*	*	*	*tremolo	*tremolo	*
!	!	!	!	!LO:N:TREM:vis=4.	!LO:N:TREM:vis=4.	!
8.G#L 8.GG#~/)	4r	.	.	12cc#\L	12ccc#L 12aa 12ff#\	.
.	.	.	.	12cc#\	12ccc# 12aa 12ff#\	.
.	.	.	.	12cc#\J	12ccc#J 12aa 12ff#\	[[
*	*	*	*	*Xtremolo	*Xtremolo	*
16F#Jk 16FF#/	.	.	.	.	.	.
!	!	!	!	!LO:LB:g=original	!LO:LB:g=original	!
=93	=93	=93	=93	=93	=93	=93
*	*	*	*^	*	*^	*
!	!	!	!	!LO:HP:b=2	!	!	!	!
(2F# (2FF#/	12r	.	.	>	(12cc#\L	2ryy	(12ccc#L 12bbn 12gg#\	.
.	12bnL 12g# 12d/	.	>	.	12dd\)	.	12ddd 12bb 12gg#\)	>
.	12bJ 12g# 12d/	.	.	.	12dd\J	.	12dddJ 12bb 12gg#\	.
.	(12bL 12g# 12d/	.	.	.	(12dd\L	.	(12dddL 12bb 12gg#\	.
.	12b 12g# 12c#/)	.	.	.	12cc#\)	.	12ccc# 12bb 12gg#\)	.
.	12bJ 12g# 12c#/	.	.	.	12cc#\J	.	12ccc#J 12bb 12gg#\	.
*	*	*	*	*	*	*	*tremolo	*
8E#X 8EE#X/))	(12bL 12g# 12c#/	.	.	]	(12cc#\L	(12ccc#/L	12bbL 12gg#\	.
.	12b 12g# 12B#X/)	.	.	.	12b#X\)	12bb#X/)	12bb 12gg#\	.
8r	.	.	.	.	.	.	.	.
.	12bJ 12g# 12B#/	.	.	.	12b#\J	12bb#y/J	12bb 12gg#\	.
4C# 4CC#~/	(12bL 12g# 12B#/	.	.	.	(12b#\L	(12bb#y/L	12bb 12gg#\	.
.	12b 12g# 12c#/)	.	.	.	12cc#\)	12ccc#/)	12bb 12gg#\	.
.	12bJ 12g# 12c#/	.	]]	.	12cc#\J	12ccc#/J	12bbJ 12gg#\	]]
*	*clefF4	*	*	*	*	*	*Xtremolo	*
*	*	*	*v	*v	*	*v	*v	*
!LO:LB:g=original	!LO:LB:g=original	!	!	!	!	!
=94	=94	=94	=94	=94	=94	=94
*	*	*	*	*	*	*^
*xywh-#8:409,787,2563,600	*xywh-#8:409,787,2563,600	*	*	*xywh-#9:306,1569,2690,637	*xywh-#9:306,1569,2690,637	*	*
!	!	!	!LO:HP:t=cresc. e string.	!	!	!LO:HP:b=2	!
([4En [4EEn/	(4A#X 4Gn\	.	<	(4gn/	12r	>	.
!	!	!	!	!	!	!	!LO:HP:t=cresc. e string.
.	.	.	.	.	(12a#X\L	.	<
.	.	.	.	.	12aa#XJ 12cc#\	.	.
12E]L 12EE/]	4Bn 4F#\	.	.	4f#/)	12bbL 12ff#\	]	.
12D#X 12DD#X~/	.	.	.	.	12b\	.	.
12DnJ 12DDn~/)	.	.	.	.	12bbJ 12ff#\	.	.
(4C# ((4CC#/	4c# 4E#X\	.	.	2r	12cc#\L	.	.
.	.	.	.	.	12ccc# 12ee#X\	.	.
.	.	.	.	.	12cc#\J	.	.
12BBL 12BBB/))	4d 4F#\)	.	.	.	12dddL 12ff#\	.	.
12AA 12AAA~/	.	.	.	.	12dd\	.	.
12GG#J 12GGG#~/)	.	.	.	.	12dddJ 12ff#\)	.	.
*	*	*	*	*	*	*v	*v
=95	=95	=95	=95	=95	=95	=95
!	!	!	!	!	!	!LO:HP:b=2
([4F# [4FF#/	(4B#X 4An\	.	.	(4an/	12r	>
.	.	.	.	.	(12b#X\L	.
.	.	.	.	.	12bb#XJ 12dd#X\	.
12F#]L 12FF#/]	4c# 4G#X\	.	.	4g#X/)	12ccc#L 12gg#\	]
12E#X 12EE#X~/	.	.	.	.	12cc#\	.
12EnJ 12EEn~/)	.	.	.	.	12ccc#J 12gg#\	.
(4D#X ((4DD#X/	4d#X 4F##X\	.	.	4r	12dd#X\L	.
.	.	.	.	.	12ddd#X 12ff##X\	.
.	.	.	.	.	12dd#\J	.
12C#L 12CC#/))	4e 4G#\)	.	.	(4g#/	12eeeL 12gg#\	.
12BBn 12BBBn~/	.	.	.	.	12ee\	.
12AA#XJ 12AAA#X~/)	.	.	.	.	12eeeJ 12gg#\)	.
*	*clefG2	*	*	*	*	*
!	!	!	!	!LO:LB:g=original	!LO:LB:g=original	!
=96	=96	=96	=96	=96	=96	=96
([4B [4BB\	(4e#X 4dn/	.	.	4ddn\	12r	<
.	.	.	.	.	(12ee#X\L	.
.	.	.	.	.	12eee#XJ 12gg#\	.
12B]L 12BB\]	4f#X 4c#/	.	.	4cc#\	12fff#L 12ccc#\	.
12A#X 12AA#X~\	.	.	.	.	12ff#\	.
12AnJ 12AAn~\)	.	.	.	.	12fff#J 12ccc#\	.
([4G# [4GG#/	4g#X 4B#X/	.	.	4b#X\	12gg#\L	.
.	.	.	.	.	12ggg# 12bb#X\	.
.	.	.	.	.	12gg#\J	.
12G#]L 12GG#/]	4a 4c#/)	.	.	4cc#\)	12aaaL 12ccc#\	.
12F# 12FF#~/	.	.	.	.	12aa\	.
12EJ 12EE~/)	.	.	.	.	12aaaJ 12ccc#\)	[[
=97	=97	=97	=97	=97	=97	=97
*	*	*	*	*ped	*	*
*	*	*	*	*tremolo	*tremolo	*
!	!	!	!	!LO:N:TREM:vis=4.	!LO:N:TREM:vis=4.	!
2.D#X 2.DD#X/	[4a [4f# [4c# [4A/	.	ff	12ff#L 12cc#\	12aaaL 12fff# 12ccc# 12aa\	ff >
.	.	.	.	12ff# 12cc#\	12aaa 12fff# 12ccc# 12aa\	.
.	.	.	.	12ff#J 12cc#\	12aaaJ 12fff# 12ccc# 12aa\	.
!	!	!	!	!LO:N:TREM:vis=4.	!LO:N:TREM:vis=4.	!
.	12a]L 12f#] 12c#] 12A/]	.	.	12ff#L 12cc#\	12aaaL 12fff# 12ccc# 12aa\	.
.	12a 12f# 12c# 12A/	.	>	12ff# 12cc#\	12aaa 12fff# 12ccc# 12aa\	.
.	12aJ 12f# 12c# 12A/	.	.	12ff#J 12cc#\	12aaaJ 12fff# 12ccc# 12aa\	.
!	!	!	!	!LO:N:TREM:vis=2.	!LO:N:TREM:vis=2.	!
.	[4a [4f# [4c# [4A/	.	.	12ff#L 12cc#\	12aaaL 12fff# 12ccc# 12aa\	.
.	.	.	.	12ff# 12cc#\	12aaa 12fff# 12ccc# 12aa\	.
.	.	.	.	12ff# 12cc#\	12aaa 12fff# 12ccc# 12aa\	.
(4D# (4DD#/	12a]L 12f#] 12c#] 12A/]	.	.	12ff# 12cc#\	12aaa 12fff# 12ccc# 12aa\	.
.	12a 12f# 12c# 12A/	.	.	12ff# 12cc#\	12aaa 12fff# 12ccc# 12aa\	.
.	12aJ 12f# 12c# 12A/	.	]	12ff#J 12cc#\	12aaaJ 12fff# 12ccc# 12aa\	]]
*	*	*	*	*Xtremolo	*Xtremolo	*
!LO:LB:g=original	!LO:LB:g=original	!	!	!	!	!
=98	=98	=98	=98	=98	=98	=98
*xywh-#8:342,1295,2696,640	*xywh-#8:342,1295,2696,640	*	*	*	*	*
*	*	*	*	*Xped	*	*
[2Dn [2DDn/))	12aL 12f# 12c# 12A/	.	>	12ff# 12ccn\	12aaa 12fff# 12cccn 12aa\	.
.	12a 12f# 12c#/	.	.	12r	12r	.
.	12aJ 12f# 12c#/	.	.	12r	12r	.
.	12aL 12f# 12c#/	.	.	4r	4r	.
.	12a 12f# 12c#/	.	.	.	.	.
.	12aJ 12f# 12c#/	.	]	.	.	.
8D] 8DD/]	12aL 12f# 12c#/	.	.	4r	4r	.
.	(12f# 12d/	.	pp	.	.	.
8r	.	.	.	.	.	.
.	12aJ 12c#/	.	.	.	.	.
!	!	!	!	!	!LO:TX:b:i:t=dolce	!
4r	12f#L 12d/	.	.	4aa\	4aaa\	p
.	12a 12c#/	.	.	.	.	.
.	12f#J 12d/	.	.	.	.	.
=99	=99	=99	=99	=99	=99	=99
4r	12aL 12B/)	.	.	(4aa\	(4aaa\	.
.	(12d/	.	.	.	.	.
.	12aJ 12B/	.	.	.	.	.
!LO:TX:b:i:t=legg.	!	!	!	!	!	!
4D 4DD'/	12d/L	.	.	4b\)	4bb\)	.
.	12a 12B/	.	.	.	.	.
.	12d/J	.	.	.	.	.
!	!	!	!LO:HP:a=2	!	!	!
4D 4DD'/	12gnL 12c#X/	.	<	8r	2r	.
.	12e 12B-X/	.	.	.	.	.
!	!	!	!	!LO:TX:b:i:t=espress.	!	!LO:HP:a=2
.	.	.	.	(8ee\L	.	<
.	12gJ 12c#/	.	.	.	.	.
4r	12eL 12B-/	.	.	8ff#\	.	.
.	12g 12c#/	.	.	.	.	.
.	.	.	.	8ggn\J)	.	[
.	12eJ 12B-/	.	[	.	.	.
=100	=100	=100	=100	=100	=100	=100
*	*	*	*	*	*	*^
!	!	!	!	!	!	!LO:HP:a=2	!
4r	12gnL 12A/)	.	.	(4ggn\	2r	>	.
.	(12d/	.	.	.	.	.	.
.	12gJ 12A/	.	.	.	.	.	.
4D 4DD'/	12d/L	.	.	4a/)	.	.	.
.	12g 12A/	.	.	.	.	.	.
.	12d/J	.	.	.	.	]	.
4D 4DD'/	12f#L 12A/	.	.	(2a^>/	8r	.	.
.	12d/	.	.	.	.	.	.
!	!	!	!	!	!LO:TX:b:i:t=dolce	!	!
.	.	.	.	.	(8dddL 8dd\	.	.
.	12f#J 12A/	.	.	.	.	.	.
!	!	!	!	!	!	!LO:HP:a=2	!
4r	12d/L	.	.	.	8eee 8ee\	<	.
.	12f# 12A/	.	.	.	.	.	.
.	.	.	.	.	8fff#J 8ff#\)	.	.
.	12d/J)	.	.	.	.	.	.
!!LO:LB:g=original
=101	=101	=101	=101	=101	=101	=101	=101
*	*^	*	*	*	*	*	*
*xywh-#8:235,1875,2877,527	*xywh-#8:235,1875,2877,527	*xywh-#8:235,1875,2877,527	*	*	*xywh-#9:339,2207,2562,650	*xywh-#9:339,2207,2562,650	*	*
2r	(12B/L	4B\	.	<	4g#/	8fff#L 8ff#\	.	.
.	12d/	.	.	.	.	.	.	.
!	!	!	!	!	!	!	!	!LO:HP:a
.	.	.	.	.	.	(8b\	.	<
.	12B/J	.	.	.	.	.	.	.
.	12A/L	4A\	.	.	2f#/	8cc#\	.	.
.	12d/	.	.	.	.	.	.	.
.	.	.	.	.	.	8dd\J)	[	[
.	12A/J	.	.	[	.	.	.	.
4r	12G#/L	4G#X\	.	.	.	8r	.	.
.	12d/	.	.	.	.	.	.	.
!	!	!	!	!	!	!	!LO:HP:a=2	!LO:HP:a
.	.	.	.	.	.	(8b/L	>	>
.	12G#/J	.	.	.	.	.	.	.
.	.	.	.	.	.	8qb/	.	.
4C# 4CC#'/	12B/L	4B\	.	>	4e#X/)	8a/	.	.
.	12c#/	.	.	.	.	.	.	.
.	.	.	.	.	.	8g#/J)	]]	]
.	12B/J)	.	.	]]	.	.	.	.
*	*v	*v	*	*	*	*	*v	*v
=102	=102	=102	=102	=102	=102	=102
*	*tremolo	*	*	*	*	*
!	!LO:N:TREM:vis=2.	!	!	!	!	!
[1D 1DD	12aL 12f# 12cn/	.	sfz >	[2dd [2ccn\	[2aa [2ff#\	sfz >
.	12a 12f# 12c/	.	.	.	.	.
.	12a 12f# 12c/	.	.	.	.	.
.	12a 12f# 12c/	.	.	.	.	.
.	12a 12f# 12c/	.	.	.	.	.
.	12aJ 12f# 12c/	.	.	.	.	.
*	*Xtremolo	*	*	*	*	*
.	12aL 12f# 12c/	.	]	8dd] 8cc\]	8aa] 8ff#\]	.
.	(12f# 12c/	.	pp	.	.	.
.	.	.	.	8r	8r	]
.	12d/J	.	.	.	.	.
!	!	!	!	!LO:TX:a:i:t=espress.	!	!
.	12f#L 12c/	.	.	4a/	4r	.
.	12d/	.	.	.	.	.
.	12f#J 12c/	.	.	.	.	.
=103	=103	=103	=103	=103	=103	=103
*^	*	*	*	*	*	*
*	*xywh-#8:235,1875,2877,527	*	*	*	*	*	*
!	!	!	!	!	!	!	!LO:HP:b=2
12D/L]	1DD	4d 4B/)	.	pp	(4a/	2r	>
(12BB/	.	.	.	.	.	.	.
12D/J	.	.	.	.	.	.	.
12BB/L	.	4r	.	.	4B/)	.	]
12D/	.	.	.	.	.	.	.
12BB/J	.	.	.	.	.	.	.
*	*	*	*	*	*tuplet	*	*
!	!	!	!	!	!	!	!LO:DY:b=2
[2D/)	.	12r	.	.	12r	8r	pp
.	.	(12B-X/L	.	.	(12eL/	.	.
!	!	!	!	!	!	!	!LO:HP:b=1
.	.	.	.	.	.	(8ee\L	<
.	.	12d/J	.	.	12gn/J	.	.
*	*	*	*	*	*Xtuplet	*	*
.	.	12B-/L	.	.	12e/L	8ff#\	.
.	.	12c#X/	.	.	12g/	.	.
.	.	.	.	.	.	8ggn\J)	[[
.	.	12B-/J	.	.	12e/J	.	.
!LO:LB:g=original	!	!LO:LB:g=original	!	!	!	!	!
=104	=104	=104	=104	=104	=104	=104	=104
*xywh-#8:388,2349,2590,687	*xywh-#8:388,2349,2590,687	*xywh-#8:388,2349,2590,687	*	*	*	*	*
!	!	!	!	!	!	!	!LO:HP:b=1
(12D/L]	[2DD\	4A/)	.	.	4d/)	(4ggn\	>
12AA/	.	.	.	.	.	.	.
12D/J	.	.	.	.	.	.	.
12AA/L	.	4r	.	.	4r	4a/)	]
12D/	.	.	.	.	.	.	.
12AA/J	.	.	.	.	.	.	.
8D 8DD/])	2ryy	12r	.	.	8r	2r	.
*	*	*clefF4	*	*	*	*	*
.	.	(12AL 12F#\	.	.	.	.	.
!	!	!	!	!	!	!	!LO:HP:b=2
8r	.	.	.	.	(8d/L	.	<
.	.	12D\J	.	.	.	.	.
4BB 4BBB'/	.	12BL 12F#\	.	.	8e/	.	.
.	.	12D\	.	.	.	.	.
.	.	.	.	.	8f#/J)	.	.
.	.	12BJ 12F#\	.	.	.	.	.
*v	*v	*	*	*	*	*	*
=105	=105	=105	=105	=105	=105	=105
*	*	*	*	*	*	*^
!	!	!	!	!LO:N:vis=2	!	!	!
4r	12D\L	.	<	(2.f#/	8r	[	.
.	12B 12F#\	.	.	.	.	.	.
!	!	!	!	!	!	!LO:HP:b=1	!
.	.	.	.	.	(8b\L	<	.
.	12D\J	.	.	.	.	.	.
4GG# 4GGG#'/	12BL 12F#\	.	.	.	8cc#\	.	.
.	12D\	.	.	.	.	.	.
.	.	.	.	.	8dd\J	.	.
.	12BJ 12F#\	.	[	.	.	.	.
*tuplet	*	*	*	*	*	*	*
*Xbrackettup	*	*	*	*	*	*	*
!LO:TUP:b	!	!	!	!	!	!	!
12r	8D\L)	.	.	.	4g#X/)	[[	.
(12CC#/L	.	.	.	.	.	.	.
!	!LO:TX:a:i:t=poco espress.	!	!	!	!	!	!
.	8B\	.	>	.	.	.	.
12C#/J	.	.	.	.	.	.	.
.	8qB/	.	.	.	.	.	.
*Xtuplet	*	*	*	*	*	*	*
!	!	!	!	!	!	!LO:HP:b=1	!LO:HP:b=2
12CC#/L	(8A\	.	.	4e#X/	(4ccc# 4cc#\	>	>
12C#/	.	.	.	.	.	.	.
.	8G#\J	.	.	.	.	.	.
12CC#/J)	.	.	]]	.	.	.	.
!	!	!	!	!LO:LB:g=original	!LO:LB:g=original	!	!
=106	=106	=106	=106	=106	=106	=106	=106
*	*	*	*^	*	*	*	*
*	*	*	*	*	*xywh-#9:299,2878,2623,630	*xywh-#9:299,2878,2623,630	*	*
!LO:TX:a:i:t=poco marcato	!	!	!	!	!	!	!	!
[2FF# [2FFF#/	8A\)	.	.	.	4f#/)	4ff#\)	.	.
.	8r	.	.	.	.	.	]	]
.	(4d 4D^\	.	<	.	4r	4r	.	.
12FF#]L 12FFF#/]	4c# 4C#\	.	.	.	2r	2r	.	.
!	!	!	!	!LO:HP:b=2	!	!	!	!
(12GG#/	.	.	.	<	.	.	.	.
12AA/J	.	.	.	.	.	.	.	.
8.GG#/L	4B#X 4BB#X\)	.	[	.	.	.	.	.
16FF#/Jk)	.	.	.	[	.	.	.	.
*	*	*	*	*	*	*	*v	*v
=107	=107	=107	=107	=107	=107	=107	=107
!	!	!	!	!LO:HP:b=2	!	!	!
(2FF#/	(2d [2G# (2D\	.	>	>	4r	2r	.
!	!	!	!	!	!	!	!LO:HP:b=2
.	.	.	.	.	(8.B/L	.	<
.	.	.	.	.	16b/Jk)	.	.
8EE#X/)	8c# 8G#] 8C#\))	.	]	]	([4b/	4r	.
8r	8r	.	.	.	.	.	[
!	!	!	!	!	!	!	!LO:HP:b=1
4C# 4CC#/	4r	.	.	.	12b/L]	(8.cc#\L	<
.	.	.	.	.	12a/	.	.
.	.	.	.	.	12g#/J	.	.
.	.	.	.	.	.	16ccc#\Jk)	[[
*	*	*	*v	*v	*	*	*
!LO:LB:g=original	!LO:LB:g=original	!	!	!	!	!
=108	=108	=108	=108	=108	=108	=108
*xywh-#8:315,2963,2603,640	*xywh-#8:315,2963,2603,640	*	*	*	*	*
[2FF# [2FFF#/	4r	.	.	4a/)	4ccc#\	.
.	(4en 4En\	.	<	4r	4r	.
12FF#]L 12FFF#/]	4d#X 4D#X\	.	.	2r	2r	.
(12GG#/	.	.	.	.	.	.
12AA/J	.	.	.	.	.	.
8.GG#/L	4Bn 4BBn\)	.	[	.	.	.
16FF#/Jk)	.	.	.	.	.	.
=109	=109	=109	=109	=109	=109	=109
(2FF#/	(2dn 2G# 2Dn\	.	>	4r	2r	.
!	!	!	!	!	!	!LO:HP:a=2
.	.	.	.	(8.B/L	.	<
.	.	.	.	16g#/Jk)	.	.
8EE#X/)	8c# 8G# 8C#\)	.	]	[2g#/	4r	[
8r	8r	.	.	.	.	.
!	!	!	!LO:DY:b=2:rj	!	!	!LO:HP:b=1
4C# 4CC#/	4r	.	ff	.	(8.b\L	<
.	.	.	.	.	16bb\Jk)	[[
=110	=110	=110	=110	=110	=110	=110
[2FF# [2FFF#/	4r	.	ff	4g#/]	4bb\	.
*	*clefG2	*	*	*	*	*
.	(8.f#L 8.A'/	.	.	(8.aaL 8.cc#'\	(8.aaaL 8.ccc#'\	ff
.	16g#Jk 16c#'/	.	.	16gg#Jk 16cc#'\	16ggg#Jk 16ccc#'\	.
12FF#]L 12FFF#/]	8a 8f#'/)	.	.	8ff# 8cc#'\)	8fff# 8ccc#'\)	.
(12GG# 12GGG#~/	.	.	.	.	.	.
.	8r	.	.	8r	8r	.
12AAJ 12AAA~/	.	.	.	.	.	.
8.GG#L 8.GGG#/)	4r	.	.	4r	4r	.
16FF#Jk 16FFF#/	.	.	.	.	.	.
=111	=111	=111	=111	=111	=111	=111
[2FF# [2FFF#/	4r	.	.	4r	4r	.
.	(8.dL 8.F#'/	.	.	(8.ff#L 8.a'\	(8.fff#L 8.aa'\	.
.	16eJk 16A'/	.	.	16eeJk 16a'\	16eeeJk 16aa'\	.
12FF#]L 12FFF#/]	8f# 8d'/)	.	.	8dd 8a'\)	8ddd 8aa'\)	.
(12GG# 12GGG#~/	.	.	.	.	.	.
.	8r	.	.	8r	8r	.
12AAJ 12AAA~/	.	.	.	.	.	.
8.GG#L 8.GGG#/	4r	.	.	4r	4r	.
16FF#Jk 16FFF#/)	.	.	.	.	.	.
*	*clefF4	*	*	*	*	*
!!LO:PB:g=original
=112	=112	=112	=112	=112	=112	=112
*	*	*	*	*^	*^	*
*xywh-#10:330,207,2666,788	*xywh-#10:330,207,2666,788	*	*	*xywh-#11:340,260,2546,786	*xywh-#11:340,260,2546,786	*xywh-#11:340,260,2546,786	*xywh-#11:340,260,2546,786	*
*tremolo	*	*	*	*	*	*	*	*
64CC#/LLLL	4r	.	sfz	(<2gg# 2dd (2b\	2ryy	(2ggg#/	(2ddd 2bb\	sfz
64C#/	.	.	.	.	.	.	.	.
64CC#/	.	.	.	.	.	.	.	.
64C#/	.	.	.	.	.	.	.	.
64CC#/	.	.	.	.	.	.	.	.
64C#/	.	.	.	.	.	.	.	.
64CC#/	.	.	.	.	.	.	.	.
64C#/	.	.	.	.	.	.	.	.
64CC#/	.	.	.	.	.	.	.	.
64C#/	.	.	.	.	.	.	.	.
64CC#/	.	.	.	.	.	.	.	.
64C#/	.	.	.	.	.	.	.	.
64CC#/	.	.	.	.	.	.	.	.
64C#/	.	.	.	.	.	.	.	.
64CC#/	.	.	.	.	.	.	.	.
64C#/	.	.	.	.	.	.	.	.
64CC#/	(4E#X\	.	>	.	.	.	.	.
64C#/	.	.	.	.	.	.	.	.
64CC#/	.	.	.	.	.	.	.	.
64C#/	.	.	.	.	.	.	.	.
64CC#/	.	.	.	.	.	.	.	.
64C#/	.	.	.	.	.	.	.	.
64CC#/	.	.	.	.	.	.	.	.
64C#/	.	.	.	.	.	.	.	.
64CC#/	.	.	.	.	.	.	.	>
64C#/	.	.	.	.	.	.	.	.
64CC#/	.	.	.	.	.	.	.	.
64C#/	.	.	.	.	.	.	.	.
64CC#/	.	.	.	.	.	.	.	.
64C#/	.	.	.	.	.	.	.	.
64CC#/	.	.	.	.	.	.	.	.
64C#/JJJJ	.	.	.	.	.	.	.	.
64CC#/LLLL	4F#\	.	.	12cc#/L)	4a#X\	12ccc#/L)	4aa#X\	.
64C#/	.	.	.	.	.	.	.	.
64CC#/	.	.	.	.	.	.	.	.
64C#/	.	.	.	.	.	.	.	.
64CC#/	.	.	.	.	.	.	.	.
64C#/	.	.	.	.	.	.	.	.
.	.	.	.	8qdd#X/	.	8qddd#X/	.	.
.	.	.	.	(12cc#/	.	(12ccc#/	.	] pp
64CC#/	.	.	.	.	.	.	.	.
64C#/	.	.	.	.	.	.	.	.
64CC#/	.	.	.	.	.	.	.	.
64C#/	.	.	.	.	.	.	.	.
64CC#/	.	.	.	.	.	.	.	.
.	.	.	.	12b#X/J	.	12bb#X/J	.	.
64C#/	.	.	.	.	.	.	.	.
64CC#/	.	.	.	.	.	.	.	.
64C#/	.	.	.	.	.	.	.	.
64CC#/	.	.	.	.	.	.	.	.
64C#/	.	.	.	.	.	.	.	.
*	*tuplet	*	*	*	*	*	*	*
!	!LO:TUP:a	!	!	!	!	!	!	!
64CC#/	6F##X\	.	] pp	12cc#/L	6an\	12ccc#/L	6aan\	.
64C#/	.	.	.	.	.	.	.	.
64CC#/	.	.	.	.	.	.	.	.
64C#/	.	.	.	.	.	.	.	.
64CC#/	.	.	.	.	.	.	.	.
64C#/	.	.	.	.	.	.	.	.
.	.	.	.	12dd#y/	.	12ddd#y/	.	.
64CC#/	.	.	.	.	.	.	.	.
64C#/	.	.	.	.	.	.	.	.
64CC#/	.	.	.	.	.	.	.	.
64C#/	.	.	.	.	.	.	.	.
64CC#/	.	.	.	.	.	.	.	.
.	12G#\	.	.	12ee/J)	12g#\)	12eee/J)	12gg#\)	.
64C#/	.	.	.	.	.	.	.	.
64CC#/	.	.	.	.	.	.	.	.
64C#/	.	.	.	.	.	.	.	.
64CC#/	.	.	.	.	.	.	.	.
64C#/JJJJ	.	.	.	.	.	.	.	.
=113	=113	=113	=113	=113	=113	=113	=113	=113
64CC#/LLLL	4A#X\)	.	.	(2dd#X/	(4f##X\	(2ddd#X/	(4ff##X\	.
64C#/	.	.	.	.	.	.	.	.
64CC#/	.	.	.	.	.	.	.	.
64C#/	.	.	.	.	.	.	.	.
64CC#/	.	.	.	.	.	.	.	.
64C#/	.	.	.	.	.	.	.	.
64CC#/	.	.	.	.	.	.	.	.
64C#/	.	.	.	.	.	.	.	.
64CC#/	.	.	.	.	.	.	.	.
64C#/	.	.	.	.	.	.	.	.
64CC#/	.	.	.	.	.	.	.	.
64C#/	.	.	.	.	.	.	.	.
64CC#/	.	.	.	.	.	.	.	.
64C#/	.	.	.	.	.	.	.	.
64CC#/	.	.	.	.	.	.	.	.
64C#/	.	.	.	.	.	.	.	.
!	!	!	!	!	!LO:N:n=2:acc=n#	!	!LO:N:n=2:acc=n#	!
64CC#/	(4B#X\	.	.	.	4an 4f#X\	.	4aan 4ff#X\	.
64C#/	.	.	.	.	.	.	.	.
64CC#/	.	.	.	.	.	.	.	.
64C#/	.	.	.	.	.	.	.	.
64CC#/	.	.	.	.	.	.	.	.
64C#/	.	.	.	.	.	.	.	.
64CC#/	.	.	.	.	.	.	.	.
64C#/	.	.	.	.	.	.	.	.
64CC#/	.	.	.	.	.	.	.	.
64C#/	.	.	.	.	.	.	.	.
64CC#/	.	.	.	.	.	.	.	.
64C#/	.	.	.	.	.	.	.	.
64CC#/	.	.	.	.	.	.	.	.
64C#/	.	.	.	.	.	.	.	.
64CC#/	.	.	.	.	.	.	.	.
64C#/JJJJ	.	.	.	.	.	.	.	.
64CC#/LLLL	4c#\	.	.	12g#/L)	4e#X\	12gg#/L)	4ee#X\	.
64C#/	.	.	.	.	.	.	.	.
64CC#/	.	.	.	.	.	.	.	.
64C#/	.	.	.	.	.	.	.	.
64CC#/	.	.	.	.	.	.	.	.
64C#/	.	.	.	.	.	.	.	.
.	.	.	.	8qa#X/	.	8qaa#X/	.	.
.	.	.	.	(12g#/	.	(12gg#/	.	.
64CC#/	.	.	.	.	.	.	.	.
64C#/	.	.	.	.	.	.	.	.
64CC#/	.	.	.	.	.	.	.	.
64C#/	.	.	.	.	.	.	.	.
64CC#/	.	.	.	.	.	.	.	.
.	.	.	.	12f##X/J	.	12ff##X/J	.	.
64C#/	.	.	.	.	.	.	.	.
64CC#/	.	.	.	.	.	.	.	.
64C#/	.	.	.	.	.	.	.	.
64CC#/	.	.	.	.	.	.	.	.
64C#/	.	.	.	.	.	.	.	.
!	!LO:TUP:a	!	!	!	!	!	!	!
64CC#/	6D\	.	.	12g#/L	6en\	12gg#/L	6een\	.
64C#/	.	.	.	.	.	.	.	.
64CC#/	.	.	.	.	.	.	.	.
64C#/	.	.	.	.	.	.	.	.
64CC#/	.	.	.	.	.	.	.	.
64C#/	.	.	.	.	.	.	.	.
.	.	.	.	12a#y/	.	12aa#y/	.	.
64CC#/	.	.	.	.	.	.	.	.
64C#/	.	.	.	.	.	.	.	.
64CC#/	.	.	.	.	.	.	.	.
64C#/	.	.	.	.	.	.	.	.
64CC#/	.	.	.	.	.	.	.	.
.	12D#X\	.	.	12b/J)	12d#X\)	12bbn/J)	12dd#X\)	.
64C#/	.	.	.	.	.	.	.	.
64CC#/	.	.	.	.	.	.	.	.
64C#/	.	.	.	.	.	.	.	.
64CC#/	.	.	.	.	.	.	.	.
64C#/JJJJ	.	.	.	.	.	.	.	.
=114	=114	=114	=114	=114	=114	=114	=114	=114
64CC#/LLLL	4E#X\	.	<	(2a#X/	(4c##X\	(2aa#X/	(4cc##X\	<
64C#/	.	.	.	.	.	.	.	.
64CC#/	.	.	.	.	.	.	.	.
64C#/	.	.	.	.	.	.	.	.
64CC#/	.	.	.	.	.	.	.	.
64C#/	.	.	.	.	.	.	.	.
64CC#/	.	.	.	.	.	.	.	.
64C#/	.	.	.	.	.	.	.	.
64CC#/	.	.	.	.	.	.	.	.
64C#/	.	.	.	.	.	.	.	.
64CC#/	.	.	.	.	.	.	.	.
64C#/	.	.	.	.	.	.	.	.
64CC#/	.	.	.	.	.	.	.	.
64C#/	.	.	.	.	.	.	.	.
64CC#/	.	.	.	.	.	.	.	.
64C#/	.	.	.	.	.	.	.	.
!	!	!	!	!	!	!	!LO:N:n=2:acc=n#	!
64CC#/	4F##X\	.	.	.	4c#X\	.	4een 4cc#X\	.
64C#/	.	.	.	.	.	.	.	.
64CC#/	.	.	.	.	.	.	.	.
64C#/	.	.	.	.	.	.	.	.
64CC#/	.	.	.	.	.	.	.	.
64C#/	.	.	.	.	.	.	.	.
64CC#/	.	.	.	.	.	.	.	.
64C#/	.	.	.	.	.	.	.	.
64CC#/	.	.	.	.	.	.	.	.
64C#/	.	.	.	.	.	.	.	.
64CC#/	.	.	.	.	.	.	.	.
64C#/	.	.	.	.	.	.	.	.
64CC#/	.	.	.	.	.	.	.	.
64C#/	.	.	.	.	.	.	.	.
64CC#/	.	.	.	.	.	.	.	.
64C#/JJJJ	.	.	.	.	.	.	.	.
64CC#/LLLL	4G#\)	.	.	4d#X/)	4B#X\)	4dd#X/)	4b#X\)	[
64C#/	.	.	.	.	.	.	.	.
64CC#/	.	.	.	.	.	.	.	.
64C#/	.	.	.	.	.	.	.	.
64CC#/	.	.	.	.	.	.	.	.
64C#/	.	.	.	.	.	.	.	.
64CC#/	.	.	.	.	.	.	.	.
64C#/	.	.	.	.	.	.	.	.
64CC#/	.	.	.	.	.	.	.	.
64C#/	.	.	.	.	.	.	.	.
64CC#/	.	.	.	.	.	.	.	.
64C#/	.	.	.	.	.	.	.	.
64CC#/	.	.	.	.	.	.	.	.
64C#/	.	.	.	.	.	.	.	.
64CC#/	.	.	.	.	.	.	.	.
64C#/	.	.	.	.	.	.	.	.
64CC#/	4r	.	[[	(12e#X/L	4c# 4Bn\	(12ee#X/L	4cc# 4bn\	.
64C#/	.	.	.	.	.	.	.	.
64CC#/	.	.	.	.	.	.	.	.
64C#/	.	.	.	.	.	.	.	.
64CC#/	.	.	.	.	.	.	.	.
64C#/	.	.	.	.	.	.	.	.
.	.	.	.	12f#X/	.	12ff#X/	.	.
64CC#/	.	.	.	.	.	.	.	.
64C#/	.	.	.	.	.	.	.	.
64CC#/	.	.	.	.	.	.	.	.
64C#/	.	.	.	.	.	.	.	.
64CC#/	.	.	.	.	.	.	.	.
.	.	.	.	12g#/J)	.	12gg#/J)	.	.
64C#/	.	.	.	.	.	.	.	.
64CC#/	.	.	.	.	.	.	.	.
64C#/	.	.	.	.	.	.	.	.
64CC#/	.	.	.	.	.	.	.	.
64C#/JJJJ	.	.	.	.	.	.	.	.
*	*	*	*	*v	*v	*	*	*
=115	=115	=115	=115	=115	=115	=115	=115
!	!	!	!	!	!	!	!LO:DY:t=poco sfz:rj
64FFF#/LLLL	4r	.	sfz	(2gn 2en 2A#X/	(2ccc#/	2ggn 2een\	sfz
64FF#/	.	.	.	.	.	.	.
64FFF#/	.	.	.	.	.	.	.
64FF#/	.	.	.	.	.	.	.
64FFF#/	.	.	.	.	.	.	.
64FF#/	.	.	.	.	.	.	.
64FFF#/	.	.	.	.	.	.	.
64FF#/	.	.	.	.	.	.	.
64FFF#/	.	.	.	.	.	.	.
64FF#/	.	.	.	.	.	.	.
64FFF#/	.	.	.	.	.	.	.
64FF#/	.	.	.	.	.	.	.
64FFF#/	.	.	.	.	.	.	.
64FF#/	.	.	.	.	.	.	.
64FFF#/	.	.	.	.	.	.	.
64FF#/	.	.	.	.	.	.	.
64FFF#/	(4AA#X/	.	>	.	.	.	.
64FF#/	.	.	.	.	.	.	.
64FFF#/	.	.	.	.	.	.	.
64FF#/	.	.	.	.	.	.	.
64FFF#/	.	.	.	.	.	.	.
64FF#/	.	.	.	.	.	.	.
64FFF#/	.	.	.	.	.	.	.
64FF#/	.	.	.	.	.	.	.
64FFF#/	.	.	.	.	.	.	>
64FF#/	.	.	.	.	.	.	.
64FFF#/	.	.	.	.	.	.	.
64FF#/	.	.	.	.	.	.	.
64FFF#/	.	.	.	.	.	.	.
64FF#/	.	.	.	.	.	.	.
64FFF#/	.	.	.	.	.	.	.
64FF#/JJJJ	.	.	.	.	.	.	.
64FFF#/LLLL	4BB/	.	.	8f# 8d#X 8B/)	12ff#/L)	(4dd#X\	.
64FF#/	.	.	.	.	.	.	.
64FFF#/	.	.	.	.	.	.	.
64FF#/	.	.	.	.	.	.	.
64FFF#/	.	.	.	.	.	.	.
64FF#/	.	.	.	.	.	.	]
.	.	.	.	.	8qgg#X/	.	.
!	!	!	!	!	!LO:TX:b:i:t=dolce	!	!
.	.	.	.	.	(12ff#/	.	.
64FFF#/	.	.	.	.	.	.	.
64FF#/	.	.	.	.	.	.	.
64FFF#/	.	.	]	8r	.	.	.
64FF#/	.	.	.	.	.	.	.
64FFF#/	.	.	.	.	.	.	.
.	.	.	.	.	12ee#X/J	.	.
64FF#/	.	.	.	.	.	.	.
64FFF#/	.	.	.	.	.	.	.
64FF#/	.	.	.	.	.	.	.
64FFF#/	.	.	.	.	.	.	.
64FF#/	.	.	.	.	.	.	.
*	*	*	*	*tuplet	*	*	*
!	!	!	!	!LO:TUP:a	!	!	!
64FFF#/	6BB#X/	.	.	6r	12ff#/L	6ddn\	.
64FF#/	.	.	.	.	.	.	.
64FFF#/	.	.	.	.	.	.	.
64FF#/	.	.	.	.	.	.	.
64FFF#/	.	.	.	.	.	.	.
64FF#/	.	.	.	.	.	.	.
.	.	.	.	.	12gg#y/	.	.
64FFF#/	.	.	.	.	.	.	.
64FF#/	.	.	.	.	.	.	.
64FFF#/	.	.	.	.	.	.	.
64FF#/	.	.	.	.	.	.	.
64FFF#/	.	.	.	.	.	.	.
.	12C#/	.	.	(12cc#\	12aa/J)	12ee#\)	.
64FF#/	.	.	.	.	.	.	.
64FFF#/	.	.	.	.	.	.	.
64FF#/	.	.	.	.	.	.	.
64FFF#/	.	.	.	.	.	.	.
64FF#/JJJJ	.	.	.	.	.	.	.
!	!	!	!	!LO:LB:g=original	!LO:LB:g=original	!	!
=116	=116	=116	=116	=116	=116	=116	=116
*	*	*	*	*xywh-#11:307,1000,2653,706	*xywh-#11:307,1000,2653,706	*xywh-#11:307,1000,2653,706	*
64FFF#/LLLL	4D#X\)	.	pp	4b#X\	(2gg#/	(4dd#X\	.
64FF#/	.	.	.	.	.	.	.
64FFF#/	.	.	.	.	.	.	.
64FF#/	.	.	.	.	.	.	.
64FFF#/	.	.	.	.	.	.	.
64FF#/	.	.	.	.	.	.	.
64FFF#/	.	.	.	.	.	.	.
64FF#/	.	.	.	.	.	.	.
64FFF#/	.	.	.	.	.	.	.
64FF#/	.	.	.	.	.	.	.
64FFF#/	.	.	.	.	.	.	.
64FF#/	.	.	.	.	.	.	.
64FFF#/	.	.	.	.	.	.	.
64FF#/	.	.	.	.	.	.	.
64FFF#/	.	.	.	.	.	.	.
64FF#/	.	.	.	.	.	.	.
64FFF#/	(4E#X\	.	.	4bn\	.	4ddn\	.
64FF#/	.	.	.	.	.	.	.
64FFF#/	.	.	.	.	.	.	.
64FF#/	.	.	.	.	.	.	.
64FFF#/	.	.	.	.	.	.	.
64FF#/	.	.	.	.	.	.	.
64FFF#/	.	.	.	.	.	.	.
64FF#/	.	.	.	.	.	.	.
64FFF#/	.	.	.	.	.	.	.
64FF#/	.	.	.	.	.	.	.
64FFF#/	.	.	.	.	.	.	.
64FF#/	.	.	.	.	.	.	.
64FFF#/	.	.	.	.	.	.	.
64FF#/	.	.	.	.	.	.	.
64FFF#/	.	.	.	.	.	.	.
64FF#/JJJJ	.	.	.	.	.	.	.
64FFF#/LLLL	4F#\	.	.	8a#X/)	12cc#/L)	8cc#\)	.
64FF#/	.	.	.	.	.	.	.
64FFF#/	.	.	.	.	.	.	.
64FF#/	.	.	.	.	.	.	.
64FFF#/	.	.	.	.	.	.	.
64FF#/	.	.	.	.	.	.	.
.	.	.	.	.	8qdd#X/	.	.
.	.	.	.	.	(12cc#/	.	.
64FFF#/	.	.	.	.	.	.	.
64FF#/	.	.	.	.	.	.	.
64FFF#/	.	.	.	8r	.	8r	.
64FF#/	.	.	.	.	.	.	.
64FFF#/	.	.	.	.	.	.	.
.	.	.	.	.	12b#X/J	.	.
64FF#/	.	.	.	.	.	.	.
64FFF#/	.	.	.	.	.	.	.
64FF#/	.	.	.	.	.	.	.
64FFF#/	.	.	.	.	.	.	.
64FF#/	.	.	.	.	.	.	.
*	*	*	*	*Xtuplet	*	*	*
!	!LO:TUP:a	!	!	!	!	!	!
64FFF#/	6F##X\	.	.	(6an/	12cc#/L	6cc#\	.
64FF#/	.	.	.	.	.	.	.
64FFF#/	.	.	.	.	.	.	.
64FF#/	.	.	.	.	.	.	.
64FFF#/	.	.	.	.	.	.	.
64FF#/	.	.	.	.	.	.	.
.	.	.	.	.	12dd#/	.	.
64FFF#/	.	.	.	.	.	.	.
64FF#/	.	.	.	.	.	.	.
64FFF#/	.	.	.	.	.	.	.
64FF#/	.	.	.	.	.	.	.
64FFF#/	.	.	.	.	.	.	.
.	12G#\	.	.	12g#/	12ee/J)	(12bn\	.
64FF#/	.	.	.	.	.	.	.
64FFF#/	.	.	.	.	.	.	.
64FF#/	.	.	.	.	.	.	.
64FFF#/	.	.	.	.	.	.	.
64FF#/JJJJ	.	.	.	.	.	.	.
=117	=117	=117	=117	=117	=117	=117	=117
*	*	*	*	*	*	*	*^
64FFF#/LLLL	4A#X\	.	.	4f##X/	(2dd#X/	4a#X\	.	.
64FF#/	.	.	.	.	.	.	.	.
64FFF#/	.	.	.	.	.	.	.	.
64FF#/	.	.	.	.	.	.	.	.
64FFF#/	.	.	.	.	.	.	.	.
64FF#/	.	.	.	.	.	.	.	.
64FFF#/	.	.	.	.	.	.	.	.
64FF#/	.	.	.	.	.	.	.	.
64FFF#/	.	.	.	.	.	.	.	.
64FF#/	.	.	.	.	.	.	.	.
64FFF#/	.	.	.	.	.	.	.	.
64FF#/	.	.	.	.	.	.	.	.
64FFF#/	.	.	.	.	.	.	.	.
64FF#/	.	.	.	.	.	.	.	.
64FFF#/	.	.	.	.	.	.	.	.
64FF#/	.	.	.	.	.	.	.	.
!	!	!	!	!LO:N:acc=n#	!	!	!	!
64FFF#/	4B#X\	.	.	4f#X/	.	4an\	<	.
64FF#/	.	.	.	.	.	.	.	.
64FFF#/	.	.	.	.	.	.	.	.
64FF#/	.	.	.	.	.	.	.	.
64FFF#/	.	.	.	.	.	.	.	.
64FF#/	.	.	.	.	.	.	.	.
64FFF#/	.	.	.	.	.	.	.	.
64FF#/	.	.	.	.	.	.	.	.
64FFF#/	.	.	.	.	.	.	.	.
64FF#/	.	.	.	.	.	.	.	.
64FFF#/	.	.	.	.	.	.	.	.
64FF#/	.	.	.	.	.	.	.	.
64FFF#/	.	.	.	.	.	.	.	.
64FF#/	.	.	.	.	.	.	.	.
64FFF#/	.	.	.	.	.	.	.	.
64FF#/JJJJ	.	.	.	.	.	.	.	.
64FFF#/LLLL	8c#\)	.	.	8e#X/)	8g#/)	8g#\)	.	.
64FF#/	.	.	.	.	.	.	.	.
64FFF#/	.	.	.	.	.	.	.	.
64FF#/	.	.	.	.	.	.	.	.
64FFF#/	.	.	.	.	.	.	.	.
64FF#/	.	.	.	.	.	.	.	.
64FFF#/	.	.	.	.	.	.	.	.
64FF#/	.	.	.	.	.	.	.	.
64FFF#/	8r	.	.	8r	8r	8ryy	.	.
64FF#/	.	.	.	.	.	.	.	.
64FFF#/	.	.	.	.	.	.	.	.
64FF#/	.	.	.	.	.	.	.	.
64FFF#/	.	.	.	.	.	.	.	.
64FF#/	.	.	.	.	.	.	.	.
64FFF#/	.	.	.	.	.	.	.	.
64FF#/	.	.	.	.	.	.	.	.
!	!LO:N:acc=n#	!	!	!	!	!	!	!
64FFF#/	(4F#X\	.	.	([4en/	(12a#X/L	[4f#\	.	.
64FF#/	.	.	.	.	.	.	.	.
64FFF#/	.	.	.	.	.	.	.	.
64FF#/	.	.	.	.	.	.	.	.
64FFF#/	.	.	.	.	.	.	.	.
64FF#/	.	.	.	.	.	.	.	.
.	.	.	.	.	12g#/	.	.	.
64FFF#/	.	.	.	.	.	.	.	.
64FF#/	.	.	.	.	.	.	.	.
64FFF#/	.	.	.	.	.	.	.	.
64FF#/	.	.	.	.	.	.	.	.
64FFF#/	.	.	.	.	.	.	.	.
.	.	.	.	.	12a#/J	.	.	.
64FF#/	.	.	.	.	.	.	.	.
64FFF#/	.	.	.	.	.	.	.	.
64FF#/	.	.	.	.	.	.	.	.
64FFF#/	.	.	.	.	.	.	.	.
64FF#/JJJJ	.	.	.	.	.	.	.	.
*Xtremolo	*	*	*	*	*	*	*	*
!LO:LB:g=original	!LO:LB:g=original	!	!	!	!	!	!	!
=118	=118	=118	=118	=118	=118	=118	=118	=118
*xywh-#10:343,909,2626,701	*xywh-#10:343,909,2626,701	*	*	*	*	*	*	*
4BBB/	[2BB/)	.	.	4e/]	[2cc#/)	2f#\_	[	.
4r	.	.	.	4d#X/	.	.	.	.
*	*Xtuplet	*	*	*	*	*	*	*
2r	12BB\L]	.	>	8dn/)	12cc#/L]	8f#\]	.	.
.	(12B\	.	.	.	(12b/	.	.	.
.	.	.	.	8r	.	8ryy	>	.
.	12A#X\J	.	.	.	12a#X/J	.	.	.
.	12B\L	.	.	4r	12b/L	4ryy	.	.
.	12c#\	.	.	.	12cc#/	.	.	.
.	12d\J	.	]	.	12dd/J	.	.	.
*	*	*	*	*	*v	*v	*	*
=119	=119	=119	=119	=119	=119	=119	=119
4r	8F#\)	.	.	4r	4f#/)	]	.
.	8r	.	.	.	.	.	.
!	!	!	!	!	!	!	!LO:HP:a=2
(4E 4EE/	[2.F#\	.	<	(4A#X/	(2f#/	<	<
4D#X 4DD#X/	.	.	.	4B/	.	.	.
4Dn 4DDn/	.	.	.	4B#X/	4g#/	.	.
=120	=120	=120	=120	=120	=120	=120	=120
4C# 4CC#/)	4F#\]	.	.	4c#/)	4a/)	[	.
4r	4r	.	.	4r	4r	.	.
(4C# 4CC#'/	(4f# 4d#X 4B#X 4A'\	.	.	2r	2r	.	.
4r	4r	.	.	.	.	.	.
!	!	!	!	!LO:LB:g=original	!LO:LB:g=original	!	!
=121	=121	=121	=121	=121	=121	=121	=121
*	*	*	*	*xywh-#11:340,1607,2613,673	*xywh-#11:340,1607,2613,673	*	*
4C# 4CC#'/)	4f# 4dn 4Bn 4G#'\)	.	p	2r	4r	.	.
!	!	!	!	!	!LO:TX:a:i:t=dolce	!LO:HP:b=1	!
4r	4r	.	.	.	(8.g#\L	<	.
.	.	.	.	.	16ff#\Jk)	.	.
4r	4r	.	.	4r	(4ff#\	[	.
!	!	!	!	!	!	!LO:HP:b=1	!LO:HP:b=2
(4C# 4CC#/	(4e#X 4c# 4B\	.	>	(4bn\	4ee#X\	>	>
=122	=122	=122	=122	=122	=122	=122	=122
*	*	*	*	*^	*	*	*
*	*	*	*	*	*xywh-#11:340,1607,2613,673	*	*	*
4FF# 4FFF#/)	4f# 4c# 4A\)	.	.	4a/)	2ryy	4ff#\)	]	]
!	!	!	!LO:DY:b=2:t=pp sempre	!	!	!	!	!
12C#L 12FF#/	4r	.	] pp	4r	.	4r	.	.
12C# 12FF#/	.	.	.	.	.	.	.	.
12C#J 12FF#/	.	.	.	.	.	.	.	.
*	*clefG2	*	*	*	*	*	*	*
4C# 4FF#/	(2d (2B/	.	>	(4.a^/	[2e#X\	2r	.	.
12C#L 12FF#/	.	.	.	.	.	.	.	.
12C# 12FF#/	.	.	.	.	.	.	.	.
!	!	!	!	!	!	!	!LO:HP:a=2	!
.	.	.	.	8g#/)	.	.	<	.
12C#J 12FF#/	.	.	]	.	.	.	.	.
=123	=123	=123	=123	=123	=123	=123	=123	=123
4C# 4FF#/	[4c# [4A/))	.	.	4g#/	(4e#\]	4r	[	.
!	!	!	!	!	!	!	!LO:HP:b=1	!LO:DY:a
12C#L 12FF#/	8c#] 8A/]	.	.	8.f#/L	2ryy	(4cc#\	<	p
12C# 12FF#/	.	.	.	.	.	.	.	.
.	8r	.	.	.	.	.	.	.
12C#J 12FF#/	.	.	.	.	.	.	.	.
.	.	.	.	16en/Jk)	.	.	.	.
4C# 4FF#/	4A 4F#/	.	.	(>8e/L	.	[2ff#\)	[	.
.	.	.	.	8d/	.	.	.	.
!	!	!	!	!	!	!	!LO:HP:a=2	!
12C#L 12FF#/	[4F#'/	.	.	8A/	[4A\	.	>	.
12C# 12FF#/	.	.	.	.	.	.	.	.
.	.	.	.	8B/J	.	.	.	.
12C#J 12FF#/	.	.	.	.	.	.	.	.
*	*	*	*	*v	*v	*	*	*
!LO:LB:g=original	!LO:LB:g=original	!	!	!	!	!	!
=124	=124	=124	=124	=124	=124	=124	=124
*xywh-#10:383,1651,2580,608	*xywh-#10:383,1651,2580,608	*	*	*	*	*	*
!	!	!	!	!	!	!	!LO:HP:b=1
4C# 4FF#/	4F#/]	.	.	4c# 4A/])	(4ff#\]	]	>
12C#L 12FF#/	4r	.	.	4r	4cc#\)	.	]
12C# 12FF#/	.	.	.	.	.	.	.
12C#J 12FF#/	.	.	.	.	.	.	.
4C# 4FF#/	2e#X 2d 2B/	.	<	4.a/	2r	<	.
12C#L 12FF#/	.	.	.	.	.	.	.
12C# 12FF#/	.	.	.	.	.	.	.
.	.	.	.	8g#/	.	[	.
12C#J 12FF#/	.	.	[	.	.	.	.
=125	=125	=125	=125	=125	=125	=125	=125
*	*^	*	*	*^	*	*	*
*	*	*xywh-#10:383,1651,2580,608	*	*	*	*xywh-#11:340,1607,2613,673	*xywh-#11:340,1607,2613,673	*	*
!	!	!	!	!	!	!	!	!LO:HP:a=2	!LO:DY:b=2
4C# 4FF#/	[2f#/	(2en 2A#X\	.	sfz	(4.dd\	2.ryy	4r	<	sfz
!	!	!	!	!	!	!	!	!LO:HP:a	!
12C#L 12FF#/	.	.	.	.	.	.	(4ff#\	<	.
12C# 12FF#/	.	.	.	.	.	.	.	.	.
.	.	.	.	.	8cc#\)	.	.	.	.
12C#J 12FF#/	.	.	.	.	.	.	.	.	.
4C# 4FF#/	4f#/]	4d#X\	.	>	(>8cc#/L	.	[2fff#\)	[	.
!	!	!	!	!	!	!	!	!LO:HP:a=2	!
.	.	.	.	.	8b/	.	.	>	.
12C#L 12FF#/	4ryy	4dn\	.	.	8f#/	[4f#\	.	.	.
12C# 12FF#/	.	.	.	.	.	.	.	.	.
.	.	.	.	.	8g#/J	.	.	]]	.
12C#J 12FF#/	.	.	.	]	.	.	.	.	.
*	*v	*v	*	*	*	*	*	*	*
*	*	*	*	*v	*v	*	*	*
=126	=126	=126	=126	=126	=126	=126	=126
*	*	*	*	*	*^	*	*
4C# 4FF#/	4c#/)	.	.	4a 4f#/])	(4fff#\]	2ryy	]	.
12C#L 12FF#/	4r	.	.	4r	4ccc#\)	.	.	.
12C# 12FF#/	.	.	.	.	.	.	.	.
12C#J 12FF#/	.	.	.	.	.	.	.	.
!	!	!	!	!LO:TX:a:i:t=dolce	!	!	!LO:HP:a=2	!LO:HP:b=2
4C# 4FF#/	2r	.	.	(2b (2e#X/	(4.aa/	2dd\	>	>
12C#L 12FF#/	.	.	.	.	.	.	.	.
12C# 12FF#/	.	.	.	.	.	.	.	.
.	.	.	.	.	8gg#/)	.	.	.
12C#J 12FF#/	.	.	.	.	.	.	.	.
!	!	!	!	!LO:LB:g=original	!LO:LB:g=original	!	!	!
=127	=127	=127	=127	=127	=127	=127	=127	=127
*	*	*	*	*xywh-#11:274,2227,2560,686	*xywh-#11:274,2227,2560,686	*xywh-#11:274,2227,2560,686	*	*
4C# 4FF#/	4r	.	.	4.a 4.f#/))	(4gg#/	4.cc#\	]	]
12C#L 12FF#/	4c#'/	.	pp	.	8.ff#/L	.	.	.
12C# 12FF#/	.	.	<	.	.	.	.	.
.	.	.	.	8ryy	.	8r	.	.
12C#J 12FF#/	.	.	.	.	.	.	.	.
.	.	.	.	.	16een/Jk)	.	.	.
4C# 4FF#/	[2f#/	.	.	2ryy	(>8ee/L	4ryy	.	.
.	.	.	[	.	8dd/	.	.	.
12C#L 12FF#/	.	.	.	.	8a/	[4a\	.	.
12C# 12FF#/	.	.	.	.	.	.	.	.
.	.	.	.	.	8b/J	.	.	.
12C#J 12FF#/	.	.	.	.	.	.	.	.
=128	=128	=128	=128	=128	=128	=128	=128	=128
*	*	*	*	*^	*	*	*	*
*	*	*	*	*	*xywh-#11:274,2227,2560,686	*xywh-#11:274,2227,2560,686	*	*	*
4C# 4FF#/	(4f#/]	.	>	2r	2ryy	4cc#/)	4a\]	.	.
12C#L 12FF#/	4c#/)	.	]	.	.	4r	4ryy	.	.
12C# 12FF#/	.	.	.	.	.	.	.	.	.
12C#J 12FF#/	.	.	.	.	.	.	.	.	.
!	!	!	!	!	!	!	!	!LO:HP:a=2	!
4C# 4FF#/	(2d (2B/	.	>	(4.a/	[2e#X\	2r	2ryy	>	.
12C#L 12FF#/	.	.	.	.	.	.	.	.	.
12C# 12FF#/	.	.	.	.	.	.	.	.	.
.	.	.	.	8g#/)	.	.	.	]]	.
12C#J 12FF#/	.	.	.	.	.	.	.	.	.
*	*	*	*	*	*	*v	*v	*	*
!LO:LB:g=original	!LO:LB:g=original	!	!	!	!	!	!	!
=129	=129	=129	=129	=129	=129	=129	=129	=129
*xywh-#10:403,2293,2633,601	*xywh-#10:403,2293,2633,601	*	*	*	*	*	*	*
4C# 4FF#/	[2c# [2A/))	.	.	(4g#/	(4e#\]	1r	]	.
12C#L 12FF#/	.	.	.	[4f#/)	[4f#\)	.	.	.
12C# 12FF#/	.	.	.	.	.	.	.	.
12C#J 12FF#/	.	.	]	.	.	.	.	.
8C# 8FF#/	8c#] 8A/]	.	.	8f#/]	8f#\]	.	.	.
8r	8r	.	.	8r	8ryy	.	.	.
*	*clefF4	*	*	*	*	*	*	*
[4EEn^/	[4En^\	.	.	[4en^>/	4ryy	.	.	.
*	*	*	*	*v	*v	*	*v	*v
=130	=130	=130	=130	=130	=130	=130
4EE/]	4E\]	.	.	4e/]	1r	.
!	!	!	!	!	!	!LO:HP:a=2
(4DD/	(4D\	.	<	(4d/	.	<
4AAA/	4AA/	.	.	4A/	.	.
4BBB/)	4BB/	.	.	4B/	.	[[
=131	=131	=131	=131	=131	=131	=131
*	*	*	*	*	*^	*
*tremolo	*	*	*	*	*	*	*
64CCC#/LLLL	4C#/)	.	.	4c#/)	2r	2ryy	.
64CC#/	.	.	.	.	.	.	.
64CCC#/	.	.	.	.	.	.	.
64CC#/	.	.	.	.	.	.	.
64CCC#/	.	.	.	.	.	.	.
64CC#/	.	.	.	.	.	.	.
64CCC#/	.	.	.	.	.	.	.
64CC#/	.	.	.	.	.	.	.
64CCC#/	.	.	.	.	.	.	.
64CC#/	.	.	.	.	.	.	.
64CCC#/	.	.	.	.	.	.	.
64CC#/	.	.	.	.	.	.	.
64CCC#/	.	.	.	.	.	.	.
64CC#/	.	.	.	.	.	.	.
64CCC#/	.	.	.	.	.	.	.
64CC#/	.	.	.	.	.	.	.
64CCC#/	4r	.	.	4r	.	.	.
64CC#/	.	.	.	.	.	.	.
64CCC#/	.	.	.	.	.	.	.
64CC#/	.	.	.	.	.	.	.
64CCC#/	.	.	.	.	.	.	.
64CC#/	.	.	.	.	.	.	.
64CCC#/	.	.	.	.	.	.	.
64CC#/	.	.	.	.	.	.	.
64CCC#/	.	.	.	.	.	.	.
64CC#/	.	.	.	.	.	.	.
64CCC#/	.	.	.	.	.	.	.
64CC#/	.	.	.	.	.	.	.
64CCC#/	.	.	.	.	.	.	.
64CC#/	.	.	.	.	.	.	.
64CCC#/	.	.	.	.	.	.	.
64CC#/JJJJ	.	.	.	.	.	.	.
!	!	!	!	!LO:ACC:color=grey	!	!LO:ACC:color=grey	!
64CCC#/LLLL	2r	.	[[	(>[>2a [<2f# [2dn [2B/	([2aa/	[2ff# [2ddn [2b\	ff
64CC#/	.	.	.	.	.	.	.
64CCC#/	.	.	.	.	.	.	.
64CC#/	.	.	.	.	.	.	.
64CCC#/	.	.	.	.	.	.	.
64CC#/	.	.	.	.	.	.	.
64CCC#/	.	.	.	.	.	.	.
64CC#/	.	.	.	.	.	.	.
64CCC#/	.	.	.	.	.	.	.
64CC#/	.	.	.	.	.	.	.
64CCC#/	.	.	.	.	.	.	.
64CC#/	.	.	.	.	.	.	.
64CCC#/	.	.	.	.	.	.	.
64CC#/	.	.	.	.	.	.	.
64CCC#/	.	.	.	.	.	.	.
64CC#/	.	.	.	.	.	.	.
64CCC#/	.	.	.	.	.	.	.
64CC#/	.	.	.	.	.	.	.
64CCC#/	.	.	.	.	.	.	.
64CC#/	.	.	.	.	.	.	.
64CCC#/	.	.	.	.	.	.	.
64CC#/	.	.	.	.	.	.	.
64CCC#/	.	.	.	.	.	.	.
64CC#/	.	.	.	.	.	.	.
64CCC#/	.	.	.	.	.	.	.
64CC#/	.	.	.	.	.	.	.
64CCC#/	.	.	.	.	.	.	.
64CC#/	.	.	.	.	.	.	.
64CCC#/	.	.	.	.	.	.	.
64CC#/	.	.	.	.	.	.	.
64CCC#/	.	.	.	.	.	.	.
64CC#/JJJJ	.	.	.	.	.	.	.
=132	=132	=132	=132	=132	=132	=132	=132
*	*	*	*^	*^	*	*	*^
*	*	*	*	*	*	*xywh-#11:274,2227,2560,686	*	*	*	*
*	*	*	*	*	*	*	*	*	*xywh-#11:274,2227,2560,686	*xywh-#11:274,2227,2560,686
!	!	!	!LO:DY:b=1	!LO:DY:a=2	!	!	!	!	!	!
64CCC#/LLLL	2C#/	.	sfz	ff	2.a/]	2f#] 2d] 2B_\	2.aa/]	2ff#] 2dd] 2b\_	>	.
64CC#/	.	.	.	.	.	.	.	.	.	.
64CCC#/	.	.	.	.	.	.	.	.	.	.
64CC#/	.	.	.	.	.	.	.	.	.	.
64CCC#/	.	.	.	.	.	.	.	.	.	.
64CC#/	.	.	.	.	.	.	.	.	.	.
64CCC#/	.	.	.	.	.	.	.	.	.	.
64CC#/	.	.	.	.	.	.	.	.	.	.
64CCC#/	.	.	.	.	.	.	.	.	.	.
64CC#/	.	.	.	.	.	.	.	.	.	.
64CCC#/	.	.	.	.	.	.	.	.	.	.
64CC#/	.	.	.	.	.	.	.	.	.	.
64CCC#/	.	.	.	.	.	.	.	.	.	.
64CC#/	.	.	.	.	.	.	.	.	.	.
64CCC#/	.	.	.	.	.	.	.	.	.	.
64CC#/	.	.	.	.	.	.	.	.	.	.
64CCC#/	.	.	.	.	.	.	.	.	.	.
64CC#/	.	.	.	.	.	.	.	.	.	.
64CCC#/	.	.	.	.	.	.	.	.	.	.
64CC#/	.	.	.	.	.	.	.	.	.	.
64CCC#/	.	.	.	.	.	.	.	.	.	.
64CC#/	.	.	.	.	.	.	.	.	.	.
64CCC#/	.	.	.	.	.	.	.	.	.	.
64CC#/	.	.	.	.	.	.	.	.	.	.
64CCC#/	.	.	.	.	.	.	.	.	.	.
64CC#/	.	.	.	.	.	.	.	.	.	.
64CCC#/	.	.	.	.	.	.	.	.	.	.
64CC#/	.	.	.	.	.	.	.	.	.	.
64CCC#/	.	.	.	.	.	.	.	.	.	.
64CC#/	.	.	.	.	.	.	.	.	.	.
64CCC#/	.	.	.	.	.	.	.	.	.	.
64CC#/JJJJ	.	.	.	.	.	.	.	.	.	.
64CCC#/LLLL	4r	.	.	>	.	2e#X 2c# 2B\]	.	2ee#X 2cc# 2b\]	.	.
64CC#/	.	.	.	.	.	.	.	.	.	.
64CCC#/	.	.	.	.	.	.	.	.	.	.
64CC#/	.	.	.	.	.	.	.	.	.	.
64CCC#/	.	.	.	.	.	.	.	.	.	.
64CC#/	.	.	.	.	.	.	.	.	.	.
64CCC#/	.	.	.	.	.	.	.	.	.	.
64CC#/	.	.	.	.	.	.	.	.	.	.
64CCC#/	.	.	.	.	.	.	.	.	.	.
64CC#/	.	.	.	.	.	.	.	.	.	.
64CCC#/	.	.	.	.	.	.	.	.	.	.
64CC#/	.	.	.	.	.	.	.	.	.	.
64CCC#/	.	.	.	.	.	.	.	.	.	.
64CC#/	.	.	.	.	.	.	.	.	.	.
64CCC#/	.	.	.	.	.	.	.	.	.	.
64CC#/	.	.	.	.	.	.	.	.	.	.
64CCC#/	(4C#/	.	.	.	4g#/	.	4gg#/	.	.	.
64CC#/	.	.	.	.	.	.	.	.	.	.
64CCC#/	.	.	.	.	.	.	.	.	.	.
64CC#/	.	.	.	.	.	.	.	.	.	.
64CCC#/	.	.	.	.	.	.	.	.	.	.
64CC#/	.	.	.	.	.	.	.	.	.	.
64CCC#/	.	.	.	.	.	.	.	.	.	.
64CC#/	.	.	.	.	.	.	.	.	.	.
64CCC#/	.	.	.	.	.	.	.	.	.	.
64CC#/	.	.	.	.	.	.	.	.	.	.
64CCC#/	.	.	.	.	.	.	.	.	.	.
64CC#/	.	.	.	.	.	.	.	.	.	.
64CCC#/	.	.	.	.	.	.	.	.	.	.
64CC#/	.	.	.	.	.	.	.	.	.	.
64CCC#/	.	.	.	.	.	.	.	.	.	.
64CC#/JJJJ	.	.	.	.	.	.	.	.	.	.
*Xtremolo	*	*	*	*	*	*	*	*	*	*
*	*	*	*	*	*v	*v	*	*	*	*
*	*	*	*v	*v	*	*v	*v	*	*
!	!	!	!	!LO:LB:g=original	!LO:LB:g=original	!	!
=133	=133	=133	=133	=133	=133	=133	=133
*	*	*	*	*xywh-#11:320,2947,2540,653	*xywh-#11:320,2947,2540,653	*	*
4FFF#/	4FF#/)	.	]	4f# 4c# 4A/)	4ff# 4cc# 4a\)	.	.
4r	12C#L 12FF#/	.	pp	4r	4r	]	.
.	12C# 12FF#/	.	.	.	.	.	.
.	12C#J 12FF#/	.	.	.	.	.	.
4FFF#/	4C# 4FF#/	.	.	4r	4r	.	.
4r	12C#L 12FF#/	.	.	(4d/	(4b#X 4g#/	p >	.
.	12C# 12FF#/	.	.	.	.	.	.
.	12C#J 12FF#/	.	.	.	.	.	.
!LO:LB:g=original	!LO:LB:g=original	!	!	!	!	!	!
=134	=134	=134	=134	=134	=134	=134	=134
*xywh-#10:357,2914,2666,735	*xywh-#10:357,2914,2666,735	*	*	*	*	*	*
*	*	*	*	*	*^	*	*
*	*	*	*	*	*	*xywh-#11:320,2947,2540,653	*	*
4FFF#/	4C# 4FF#/	.	.	4c#/)	4cc# 4a\)	2ryy	]	.
4r	12C#L 12FF#/	.	.	4r	4r	.	.	.
.	12C# 12FF#/	.	.	.	.	.	.	.
.	12C#J 12FF#/	.	.	.	.	.	.	.
!	!	!	!	!	!	!	!LO:HP:a:t=dimin.	!
4FFF#/	4C# 4FF#/	.	.	(2d (2Bn/	(4.a/	[2e#X\	>	sfz
4r	12C#L 12FF#/	.	.	.	.	.	.	.
.	12C# 12FF#/	.	.	.	.	.	.	.
.	.	.	.	.	8g#/)	.	>	.
.	12C#J 12FF#/	.	.	.	.	.	.	.
*	*	*	*	*	*	*	*v	*v
=135	=135	=135	=135	=135	=135	=135	=135
4FFF#/	4C# 4FF#/	.	.	[4c# [4A/))	(4g#/	4e#\]	.
!	!	!	!LO:HP:t=dimin.	!	!	!	!
4r	12FF#/L	.	>	8c#] 8A/]	8f#/)	8f#\	]
.	12FF#/	.	.	.	.	.	.
.	.	.	.	8r	8r	8ryy	.
.	12FF#/J	.	.	.	.	.	.
*	*	*	*	*clefF4	*	*	*
4FFF#/	4FF#/	.	.	(2Gn [2E\	(4.d/	(2A#X\	<
4r	12FF#/L	.	.	.	.	.	.
.	12FF#/	.	.	.	.	.	.
.	.	.	.	.	8c#/	.	[[
.	12FF#/J	.	.	.	.	.	.
*	*	*	*	*	*v	*v	*
=136	=136	=136	=136	=136	=136	=136
*	*	*	*	*^	*	*
4FFF#/	4FF#/	.	.	2.F#/)	(4E\]	2f# 2B/))	>
4r	12FF#/L	.	.	.	4D#X\	.	.
.	12FF#/	.	.	.	.	.	.
.	12FF#/J	.	.	.	.	.	.
4FFF#/	4FF#/	.	.	.	2Dn\	4r	.
4r	12FF#/L	.	.	(4E#X/	.	(4B 4G#/	.
.	12FF#/	.	.	.	.	.	.
.	12FF#/J	.	.	.	.	.	.
*	*	*	*	*v	*v	*	*
=137	=137	=137	=137	=137	=137	=137
4FFF#/	4FF#/	.	.	4F# 4C#\))	4A#X/)	]
4r	12FF#/L	.	.	4r	4r	.
.	12FF#/	.	.	.	.	.
.	12FF#/J	.	.	.	.	.
4FFF#/	4FF#/	.	.	4C#/	4f# 4A#/	pp
4r	12FF#/L	.	.	4r	4r	.
.	12FF#/	.	.	.	.	.
.	12FF#/J	.	.	.	.	.
*	*	*	*	*clefG2	*	*
=138	=138	=138	=138	=138	=138	=138
*ped	*	*	*	*	*	*
*tremolo	*	*	*	*ped	*	*
(64FFF#/LLLL	2.c# 2.A#X 2.F# 2.C#;\	.	ppp >	2.cc# 2.a#X 2.f#;/	2.fff# 2.ccc# 2.aa#X 2.ff#;\	ppp
64FF#/	.	.	.	.	.	.
64FFF#/	.	.	.	.	.	.
64FF#/	.	.	.	.	.	.
64FFF#/	.	.	.	.	.	.
64FF#/	.	.	.	.	.	.
64FFF#/	.	.	.	.	.	.
64FF#/	.	.	.	.	.	.
64FFF#/	.	.	.	.	.	.
64FF#/	.	.	.	.	.	.
64FFF#/	.	.	.	.	.	.
64FF#/	.	.	.	.	.	.
64FFF#/	.	.	.	.	.	.
64FF#/	.	.	.	.	.	.
64FFF#/	.	.	.	.	.	.
64FF#/	.	.	.	.	.	.
64FFF#/	.	.	.	.	.	.
64FF#/	.	.	.	.	.	.
64FFF#/	.	.	.	.	.	.
64FF#/	.	.	.	.	.	.
64FFF#/	.	.	.	.	.	.
64FF#/	.	.	.	.	.	.
64FFF#/	.	.	.	.	.	.
64FF#/	.	.	.	.	.	.
64FFF#/	.	.	.	.	.	.
64FF#/	.	.	.	.	.	.
64FFF#/	.	.	.	.	.	.
64FF#/	.	.	.	.	.	.
64FFF#/	.	.	.	.	.	.
64FF#/	.	.	.	.	.	.
64FFF#/	.	.	.	.	.	.
64FF#/	.	.	.	.	.	.
64FFF#/	.	.	.	.	.	.
64FF#/	.	.	.	.	.	.
64FFF#/	.	.	.	.	.	.
64FF#/	.	.	.	.	.	.
64FFF#/	.	.	.	.	.	.
64FF#/	.	.	.	.	.	.
64FFF#/	.	.	.	.	.	.
64FF#/	.	.	.	.	.	.
64FFF#/	.	.	.	.	.	.
64FF#/	.	.	.	.	.	.
64FFF#/	.	.	.	.	.	.
64FF#/	.	.	.	.	.	.
64FFF#/	.	.	.	.	.	.
64FF#/	.	.	.	.	.	.
64FFF#/	.	.	.	.	.	.
*Xped	*	*	*	*Xped	*	*
64FF#/JJJJ)	.	.	]]	.	.	.
*Xtremolo	*	*	*	*	*	*
==	==	==	==	==	==	==
*-	*-	*-	*-	*-	*-	*-
!!!system-decoration: {(s1,s2)}{(s3,s4)}
!!!RDF**kern: > = above
!!!RDF**kern: < = below
!!!ENC: Andrzej Gręziak
!!!END: 2022-03-24
!!!ENC: Andrzej Kubiczek
!!!END: 2022-03-26
!!!ENC-iiif: Zuzanna Daniec
!!!END-iiif: 2022-09-17
!!!YEC: Copyright 2022 Narodowy Instytut Fryderyka Chopina (https://polishscores.org)
!!!YEM: License CC-BY-4.0 (https://creativecommons.org/licenses/by/4.0)
